Color Look-Up Tables/InstagramLOFIFilterStyle.cube
# Created by: Diego Duarte (opendesktop.org/u/diegoduarte/ | github.com/odiegoduarte/kdenlive)
TITLE "InstagramLOFIFilterStyle"
# LUT size
LUT_3D_SIZE 5
# Data domain
# LUT data points
DOMAIN_MIN 0.000000 0.000000 0.000000
DOMAIN_MAX 0.903226 0.903226 0.903226
0.065151616930961609 0.062346961349248886 0.068733192980289459
0.20117165148258209 0.062949344515800476 0.066563554108142853
0.39800980687141418 0.064521342515945435 0.068514890968799591
0.61150205135345459 0.078069068491458893 0.083495378494262695
0.79866361618041992 0.094615362584590912 0.098823569715023041
0.081533931195735931 0.19377230107784271 0.065098710358142853
0.20799973607063293 0.19487006962299347 0.067483656108379364
0.40762200951576233 0.19681288301944733 0.067906178534030914
0.62203454971313477 0.19891676306724548 0.065521225333213806
0.79925662279129028 0.20867791771888733 0.094808250665664673
0.16566509008407593 0.36182814836502075 0.069170400500297546
0.22145473957061768 0.3798539936542511 0.06657930463552475
0.42187947034835815 0.38620087504386902 0.066194012761116028
0.63633215427398682 0.39257538318634033 0.07189004123210907
0.84210139513015747 0.39870905876159668 0.094060473144054413
0.21087783575057983 0.51319843530654907 0.067402347922325134
0.32282865047454834 0.51415681838989258 0.076942063868045807
0.45006328821182251 0.56104165315628052 0.0998225137591362
0.66248941421508789 0.58600491285324097 0.070796817541122437
0.86403661966323853 0.60396403074264526 0.093815118074417114
0.20973467826843262 0.66639715433120728 0.065151773393154144
0.34276467561721802 0.64652222394943237 0.082903802394866943
0.4803539514541626 0.67438346147537231 0.10650867223739624
0.69312036037445068 0.73530900478363037 0.10145526379346848
0.91876810789108276 0.80138760805130005 0.085600264370441437
0.065650239586830139 0.068921454250812531 0.20668937265872955
0.20358175039291382 0.081133566796779633 0.20510637760162354
0.4051554799079895 0.088360600173473358 0.2019355297088623
0.61766362190246582 0.076446026563644409 0.19900217652320862
0.8316388726234436 0.10370053350925446 0.19868451356887817
0.077749989926815033 0.19208319485187531 0.20028536021709442
0.20772379636764526 0.19729305803775787 0.20220315456390381
0.40611869096755981 0.19649201631546021 0.20104943215847015
0.62013304233551025 0.19912700355052948 0.20052288472652435
0.84385335445404053 0.20088945329189301 0.20332285761833191
0.17072309553623199 0.36495879292488098 0.21044844388961792
0.23063696920871735 0.37759301066398621 0.20040376484394073
0.42160347104072571 0.3871331512928009 0.20066414773464203
0.64070987701416016 0.38700732588768005 0.19762948155403137
0.87111020088195801 0.39209145307540894 0.19681455194950104
0.21879953145980835 0.52591413259506226 0.21327210962772369
0.3286183774471283 0.5211448073387146 0.20656691491603851
0.44193378090858459 0.58213549852371216 0.19512255489826202
0.66341602802276611 0.59194594621658325 0.1954418271780014
0.88872611522674561 0.59508389234542847 0.20084220170974731
0.21985435485839844 0.67835795879364014 0.22014732658863068
0.36116486787796021 0.65724575519561768 0.21654891967773438
0.48842820525169373 0.67377042770385742 0.21272933483123779
0.68651622533798218 0.73676645755767822 0.20545376837253571
0.92720842361450195 0.80194133520126343 0.19520968198776245
0.066881507635116577 0.085832938551902771 0.39194229245185852
0.20897117257118225 0.10339668393135071 0.39295390248298645
0.41572722792625427 0.11917281150817871 0.39095562696456909
0.63381755352020264 0.14222444593906403 0.36801186203956604
0.83616417646408081 0.15240757167339325 0.36566582322120667
0.081905089318752289 0.19787636399269104 0.38640186190605164
0.20814111828804016 0.19694897532463074 0.38875189423561096
0.41004994511604309 0.20293068885803223 0.38778173923492432
0.62247830629348755 0.20631596446037292 0.37777435779571533
0.85251027345657349 0.20892634987831116 0.37530583143234253
0.14694944024085999 0.37825348973274231 0.39783558249473572
0.22054702043533325 0.38134250044822693 0.38413822650909424
0.42251795530319214 0.38686946034431458 0.38010472059249878
0.6416129469871521 0.38741013407707214 0.38087248802185059
0.87158387899398804 0.39002466201782227 0.37971588969230652
0.20609350502490997 0.53666228055953979 0.40838086605072021
0.30410796403884888 0.53168195486068726 0.39720472693443298
0.45165228843688965 0.5735124945640564 0.3814050555229187
0.66505599021911621 0.59147870540618896 0.37615427374839783
0.89802837371826172 0.59389698505401611 0.37215954065322876
0.2103385329246521 0.66957283020019531 0.42035010457038879
0.32743215560913086 0.65775662660598755 0.41231897473335266
0.49499949812889099 0.68321710824966431 0.39744958281517029
0.69158846139907837 0.79036420583724976 0.37775027751922607
0.93003499507904053 0.80976748466491699 0.37271323800086975
0.082956820726394653 0.1165132001042366 0.57261306047439575
0.20579361915588379 0.14359655976295471 0.55218112468719482
0.40858069062232971 0.159744992852211 0.5225379467010498
0.63818889856338501 0.17704074084758759 0.50623053312301636
0.85591137409210205 0.19584813714027405 0.50834286212921143
0.094077184796333313 0.198764368891716 0.58313345909118652
0.2090965211391449 0.21590407192707062 0.56830292940139771
0.41179266571998596 0.25422072410583496 0.5323638916015625
0.63809496164321899 0.2808060348033905 0.50860309600830078
0.85687607526779175 0.29518958926200867 0.50440514087677002
0.14054442942142487 0.39185670018196106 0.58011817932128906
0.22082163393497467 0.38315585255622864 0.57254868745803833
0.42595922946929932 0.39984682202339172 0.55478519201278687
0.64511954784393311 0.42331910133361816 0.53471881151199341
0.87732744216918945 0.40905806422233582 0.54044562578201294
0.19299283623695374 0.57449823617935181 0.59634846448898315
0.25759109854698181 0.56455940008163452 0.57161819934844971
0.44365620613098145 0.5882529616355896 0.56504762172698975
0.66551351547241211 0.59204274415969849 0.56146055459976196
0.89999580383300781 0.59538626670837402 0.55996245145797729
0.20879751443862915 0.69889062643051147 0.61005085706710815
0.31245520710945129 0.67945623397827148 0.59696722030639648
0.4786149263381958 0.70882809162139893 0.58491617441177368
0.68926620483398438 0.7778734564781189 0.55848366022109985
0.93133515119552612 0.80912595987319946 0.55233961343765259
0.077126078307628632 0.12255267798900604 0.67142271995544434
0.20763443410396576 0.15506847202777863 0.68338853120803833
0.41221275925636292 0.18590809404850006 0.69521689414978027
0.64102143049240112 0.17325408756732941 0.66820633411407471
0.86395716667175293 0.19733209908008575 0.66003376245498657
0.095074944198131561 0.21157371997833252 0.66832542419433594
0.21401631832122803 0.24633137881755829 0.67898130416870117
0.41468062996864319 0.29694858193397522 0.67647993564605713
0.64325255155563354 0.30758053064346313 0.66337293386459351
0.86157125234603882 0.31798207759857178 0.63466835021972656
0.1547299325466156 0.39873981475830078 0.69113093614578247
0.24944998323917389 0.39272639155387878 0.69670867919921875
0.42898744344711304 0.42452597618103027 0.72701352834701538
0.65201348066329956 0.45417433977127075 0.67645490169525146
0.86143964529037476 0.4506542980670929 0.64700210094451904
0.20713582634925842 0.59697043895721436 0.72799468040466309
0.29364180564880371 0.59005743265151978 0.70170241594314575
0.44670811295509338 0.58870255947113037 0.75062745809555054
0.66608142852783203 0.61509519815444946 0.71674686670303345
0.88608068227767944 0.62262624502182007 0.69113600254058838
0.2297007292509079 0.76887214183807373 0.7661670446395874
0.33235931396484375 0.74805444478988647 0.73523736000061035
0.46511813998222351 0.7799990177154541 0.72811174392700195
0.69254827499389648 0.80174028873443604 0.74134290218353271
0.93390059471130371 0.81035196781158447 0.73705554008483887
