Color Look-Up Tables/InstagramLOFIFilterStyle.cube
# Created by: Diego Duarte (opendesktop.org/u/diegoduarte/ | github.com/odiegoduarte/kdenlive)
TITLE "InstagramLOFIFilterStyle"
# LUT size
LUT_3D_SIZE 32
# Data domain
DOMAIN_MIN 0.0 0.0 0.0
DOMAIN_MAX 1.0 1.0 1.0
# LUT data points
0.065151616930961609 0.062346961349248886 0.068733192980289459
0.079740732908248901 0.062871649861335754 0.068598710000514984
0.095150671899318695 0.062831461429595947 0.068697944283485413
0.11318372935056686 0.062446579337120056 0.067820720374584198
0.1314866691827774 0.062710784375667572 0.066694922745227814
0.15320450067520142 0.062587723135948181 0.066929616034030914
0.17529478669166565 0.0625 0.066613577306270599
0.20117165148258209 0.062949344515800476 0.066563554108142853
0.22475571930408478 0.064519599080085754 0.066033490002155304
0.25447523593902588 0.064452618360519409 0.066619530320167542
0.2813793420791626 0.06515522301197052 0.066680274903774261
0.3102932870388031 0.063910603523254395 0.067482240498065948
0.33766576647758484 0.0649680495262146 0.067651815712451935
0.37014502286911011 0.065360710024833679 0.069537922739982605
0.39800980687141418 0.064521342515945435 0.068514890968799591
0.43054625391960144 0.06475231796503067 0.071771256625652313
0.45935562252998352 0.065796792507171631 0.0766591876745224
0.48947745561599731 0.06662663072347641 0.079342164099216461
0.5166165828704834 0.07155098021030426 0.079364150762557983
0.54956358671188354 0.074568904936313629 0.080644048750400543
0.58261013031005859 0.073957890272140503 0.082551121711730957
0.61150205135345459 0.078069068491458893 0.083495378494262695
0.64683699607849121 0.08441760390996933 0.085210882127285004
0.68000036478042603 0.088676244020462036 0.085828974843025208
0.70923680067062378 0.092124857008457184 0.083781540393829346
0.73577558994293213 0.093444161117076874 0.086864031851291656
0.75823277235031128 0.093903027474880219 0.091809645295143127
0.778961181640625 0.09475119411945343 0.095392115414142609
0.79866361618041992 0.094615362584590912 0.098823569715023041
0.81485444307327271 0.093411259353160858 0.10114330798387527
0.82751089334487915 0.092174358665943146 0.10093036293983459
0.83935451507568359 0.090531595051288605 0.099278651177883148
0.065612412989139557 0.077000163495540619 0.068479135632514954
0.080370202660560608 0.077148742973804474 0.067973345518112183
0.09613712877035141 0.077522598206996918 0.067275121808052063
0.11386751383543015 0.077930018305778503 0.066961012780666351
0.13155198097229004 0.077634356915950775 0.066526606678962708
0.15414623916149139 0.078137248754501343 0.066707506775856018
0.17638732492923737 0.077830865979194641 0.066316515207290649
0.20175926387310028 0.079101294279098511 0.06629084050655365
0.2260621041059494 0.077941164374351501 0.066421568393707275
0.2545342743396759 0.077450968325138092 0.066830061376094818
0.28099319338798523 0.078991584479808807 0.066911756992340088
0.31036761403083801 0.079624176025390625 0.067336589097976685
0.33675083518028259 0.079047642648220062 0.066096022725105286
0.3709149956703186 0.0797385573387146 0.067075155675411224
0.39719060063362122 0.079424068331718445 0.068790286779403687
0.42666992545127869 0.077710293233394623 0.069121092557907104
0.45712617039680481 0.078510843217372894 0.075807943940162659
0.48896181583404541 0.079702705144882202 0.077621720731258392
0.51850450038909912 0.080488875508308411 0.078616179525852203
0.54971122741699219 0.080188363790512085 0.082136452198028564
0.58061867952346802 0.079621486365795135 0.084062978625297546
0.61284506320953369 0.084534056484699249 0.084387585520744324
0.64746230840682983 0.091748155653476715 0.085524901747703552
0.67956817150115967 0.095263227820396423 0.085382908582687378
0.70795446634292603 0.097307018935680389 0.085077047348022461
0.73518776893615723 0.098949767649173737 0.087639592587947845
0.75779217481613159 0.10063805431127548 0.092130318284034729
0.77862840890884399 0.10231690853834152 0.096015773713588715
0.79709744453430176 0.10247346758842468 0.09934525191783905
0.81315851211547852 0.10142499953508377 0.10139887779951096
0.82700848579406738 0.10029467195272446 0.10183266550302505
0.83914965391159058 0.099140115082263947 0.10077378153800964
0.06618896871805191 0.093196392059326172 0.066535942256450653
0.081256158649921417 0.093007661402225494 0.066607408225536346
0.097098521888256073 0.093045733869075775 0.06698308140039444
0.11461975425481796 0.093310877680778503 0.067038893699645996
0.1321636289358139 0.09432084858417511 0.066613867878913879
0.15394763648509979 0.094027310609817505 0.067412726581096649
0.17610633373260498 0.09401644766330719 0.066769249737262726
0.20183824002742767 0.093700975179672241 0.066519603133201599
0.22657229006290436 0.094086475670337677 0.067086204886436462
0.25439867377281189 0.094312578439712524 0.066475905478000641
0.27954778075218201 0.095582142472267151 0.067265987396240234
0.3116111159324646 0.093624338507652283 0.067599974572658539
0.34259802103042603 0.094493463635444641 0.066176459193229675
0.37151068449020386 0.095096655189990997 0.065416015684604645
0.3981127142906189 0.095923200249671936 0.065686263144016266
0.42980271577835083 0.09484110027551651 0.066093556582927704
0.45505380630493164 0.0957149937748909 0.068125762045383453
0.48915565013885498 0.096076801419258118 0.070242859423160553
0.52010691165924072 0.095898248255252838 0.075268521904945374
0.55255824327468872 0.094923049211502075 0.079088538885116577
0.58267384767532349 0.094947926700115204 0.080657996237277985
0.61644619703292847 0.096564091742038727 0.084014751017093658
0.64927166700363159 0.099111758172512054 0.084958218038082123
0.68037146329879761 0.10054618865251541 0.08465992659330368
0.70826035737991333 0.10179303586483002 0.084944628179073334
0.73680961132049561 0.10505318641662598 0.086462102830410004
0.7598235011100769 0.10845482349395752 0.091484077274799347
0.77937483787536621 0.11005087941884995 0.095971375703811646
0.7973625659942627 0.11011240631341934 0.099570512771606445
0.81396681070327759 0.10917858779430389 0.10222563892602921
0.82851713895797729 0.10851139575242996 0.10329964011907578
0.84076195955276489 0.10789273679256439 0.10241052508354187
0.066536717116832733 0.11012563109397888 0.066993460059165955
0.082200296223163605 0.11000670492649078 0.066631652414798737
0.097775816917419434 0.1099911704659462 0.066945381462574005
0.11564471572637558 0.11026521027088165 0.067064791917800903
0.13392515480518341 0.1101202666759491 0.067065998911857605
0.15465441346168518 0.11053810268640518 0.066782757639884949
0.17636513710021973 0.11120626330375671 0.067428350448608398
0.20233547687530518 0.11190665513277054 0.066883392632007599
0.23007571697235107 0.10892895609140396 0.065717965364456177
0.25704056024551392 0.11052637547254562 0.065764069557189941
0.28414112329483032 0.11138761043548584 0.066581487655639648
0.3132597804069519 0.11158162355422974 0.066182486712932587
0.34296536445617676 0.11115448176860809 0.066436737775802612
0.37208333611488342 0.11080864071846008 0.066680975258350372
0.39822322130203247 0.11201979219913483 0.066459812223911285
0.43061688542366028 0.11288807541131973 0.067320257425308228
0.45488756895065308 0.11247257143259048 0.067054279148578644
0.48764362931251526 0.11354421079158783 0.066184267401695251
0.51811891794204712 0.11439268290996552 0.069260537624359131
0.55287396907806396 0.11328036338090897 0.069288618862628937
0.58285152912139893 0.11374425888061523 0.072453215718269348
0.61546432971954346 0.11439511924982071 0.077183805406093597
0.64926606416702271 0.1126522421836853 0.082058712840080261
0.68158942461013794 0.1130775660276413 0.08295382559299469
0.71315765380859375 0.11403070390224457 0.081519924104213715
0.74229586124420166 0.11671837419271469 0.084496580064296722
0.76373130083084106 0.11884742230176926 0.090905420482158661
0.78180390596389771 0.1201988160610199 0.095924206078052521
0.79814940690994263 0.12000903487205505 0.099963285028934479
0.81518083810806274 0.11927586793899536 0.1030602902173996
0.83156102895736694 0.11903132498264313 0.10476166754961014
0.84459775686264038 0.11906664073467255 0.10421524941921234
0.066960036754608154 0.1285998523235321 0.066830061376094818
0.081860780715942383 0.12852108478546143 0.06720241904258728
0.098740093410015106 0.12818953394889832 0.066737055778503418
0.11620373278856277 0.12835197150707245 0.067137360572814941
0.13431888818740845 0.12864263355731964 0.066675305366516113
0.15616925060749054 0.12830173969268799 0.066801369190216064
0.17705808579921722 0.1286507248878479 0.066659368574619293
0.20398895442485809 0.12790527939796448 0.066176459193229675
0.22756130993366241 0.1281563937664032 0.067380897700786591
0.25561895966529846 0.12880337238311768 0.066593743860721588
0.28496047854423523 0.12845377624034882 0.066557645797729492
0.313963383436203 0.13213810324668884 0.065987519919872284
0.34620565176010132 0.13067358732223511 0.066380687057971954
0.37268710136413574 0.12867231667041779 0.066508002579212189
0.4054122269153595 0.12860371172428131 0.066393494606018066
0.43431743979454041 0.13242131471633911 0.067067109048366547
0.45760738849639893 0.12993228435516357 0.066552281379699707
0.48870217800140381 0.13132001459598541 0.066748365759849548
0.52184534072875977 0.13315489888191223 0.066819429397583008
0.55346065759658813 0.13153478503227234 0.066541485488414764
0.57998591661453247 0.13306666910648346 0.066875040531158447
0.61161202192306519 0.13494326174259186 0.074381187558174133
0.64771789312362671 0.13342992961406708 0.078918792307376862
0.68234056234359741 0.13416165113449097 0.080068700015544891
0.71635955572128296 0.13537368178367615 0.078723259270191193
0.74448013305664062 0.13505677878856659 0.084328815340995789
0.76742309331893921 0.13456606864929199 0.090935930609703064
0.78388112783432007 0.13501653075218201 0.096049889922142029
0.79992508888244629 0.13517342507839203 0.10041391104459763
0.81725764274597168 0.13524585962295532 0.10377715528011322
0.8346179723739624 0.1355520635843277 0.10578534752130508
0.84817224740982056 0.13604961335659027 0.10545866191387177
0.066762953996658325 0.14805963635444641 0.066013067960739136
0.082609757781028748 0.1488993763923645 0.066568627953529358
0.099843330681324005 0.14846791326999664 0.066808544099330902
0.11666659265756607 0.1490044891834259 0.06648283451795578
0.13565121591091156 0.14893633127212524 0.066515423357486725
0.1561981737613678 0.14955361187458038 0.066804774105548859
0.17935943603515625 0.14910916984081268 0.066659845411777496
0.20455753803253174 0.14908434450626373 0.066397055983543396
0.22982801496982574 0.14941218495368958 0.067279398441314697
0.25894433259963989 0.14969111979007721 0.066390529274940491
0.283558189868927 0.15082046389579773 0.066338822245597839
0.31624537706375122 0.1496867835521698 0.066638633608818054
0.34668946266174316 0.14985732734203339 0.066819526255130768
0.37738379836082458 0.14974544942378998 0.068767286837100983
0.40679720044136047 0.14982293546199799 0.069149352610111237
0.4327470064163208 0.15011361241340637 0.066066130995750427
0.46031785011291504 0.14969459176063538 0.066630914807319641
0.48884806036949158 0.15077614784240723 0.066666662693023682
0.522957444190979 0.15247818827629089 0.066557727754116058
0.55374127626419067 0.15250486135482788 0.066356807947158813
0.58105301856994629 0.153359055519104 0.066345125436782837
0.61552947759628296 0.1547272652387619 0.070108368992805481
0.64868682622909546 0.15483345091342926 0.076156213879585266
0.68144810199737549 0.1563844233751297 0.07762734591960907
0.71406131982803345 0.15775209665298462 0.077701158821582794
0.74187850952148438 0.15719416737556458 0.083577089011669159
0.76576054096221924 0.15713596343994141 0.089231729507446289
0.78321069478988647 0.15781819820404053 0.094279244542121887
0.79996734857559204 0.15819889307022095 0.098465971648693085
0.81804585456848145 0.15843877196311951 0.10214558988809586
0.83545726537704468 0.15889424085617065 0.10447174310684204
0.84811908006668091 0.15952557325363159 0.10390433669090271
0.071544110774993896 0.16979843378067017 0.065559327602386475
0.082908034324645996 0.16982129216194153 0.067123860120773315
0.099042996764183044 0.16951256990432739 0.066429734230041504
0.11802484095096588 0.17010888457298279 0.066889584064483643
0.13613581657409668 0.17014089226722717 0.067116014659404755
0.1574944406747818 0.17029507458209991 0.067007467150688171
0.17979538440704346 0.17055311799049377 0.066792353987693787
0.2074839323759079 0.17010045051574707 0.066805556416511536
0.23094081878662109 0.17065826058387756 0.066027075052261353
0.25911217927932739 0.17251090705394745 0.066584959626197815
0.28609082102775574 0.17194879055023193 0.067696072161197662
0.31688767671585083 0.17117601633071899 0.066575959324836731
0.34483644366264343 0.17218731343746185 0.066735558211803436
0.3792230486869812 0.17478567361831665 0.068645283579826355
0.40789446234703064 0.17389468848705292 0.068109579384326935
0.43538862466812134 0.17388515174388885 0.066796459257602692
0.46499809622764587 0.17108523845672607 0.067586421966552734
0.49525105953216553 0.17231714725494385 0.065364040434360504
0.52448523044586182 0.17146240174770355 0.065686263144016266
0.55526953935623169 0.17271240055561066 0.066013067960739136
0.58228141069412231 0.17322750389575958 0.067244365811347961
0.62062978744506836 0.17541280388832092 0.06843201071023941
0.64870333671569824 0.17652826011180878 0.070139527320861816
0.67983055114746094 0.17792966961860657 0.074287675321102142
0.70997583866119385 0.17992627620697021 0.078230671584606171
0.73684263229370117 0.18047870695590973 0.082674071192741394
0.76177561283111572 0.18129327893257141 0.086861319839954376
0.78223812580108643 0.18232303857803345 0.092156969010829926
0.79995661973953247 0.18325558304786682 0.096064046025276184
0.81846088171005249 0.18391548097133636 0.09947311133146286
0.83504128456115723 0.18455967307090759 0.10152973234653473
0.8471713662147522 0.18522152304649353 0.10071568191051483
0.081533931195735931 0.19377230107784271 0.065098710358142853
0.084643378853797913 0.19371752440929413 0.065774567425251007
0.10062124580144882 0.19526655972003937 0.066829584538936615
0.11802248656749725 0.19412693381309509 0.066958442330360413
0.13657455146312714 0.19456106424331665 0.066658489406108856
0.15866605937480927 0.19515059888362885 0.067092858254909515
0.18080532550811768 0.19507616758346558 0.067030802369117737
0.20799973607063293 0.19487006962299347 0.067483656108379364
0.2327708899974823 0.19609916210174561 0.066789202392101288
0.26201501488685608 0.19606639444828033 0.066798225045204163
0.28755751252174377 0.1953715980052948 0.066748365759849548
0.31782394647598267 0.19693957269191742 0.066758930683135986
0.34573718905448914 0.19755189120769501 0.065576337277889252
0.37881022691726685 0.19790922105312347 0.067610800266265869
0.40762200951576233 0.19681288301944733 0.067906178534030914
0.43555146455764771 0.19756552577018738 0.067916005849838257
0.46492063999176025 0.19660355150699615 0.066517122089862823
0.49609097838401794 0.19601282477378845 0.067195355892181396
0.52496826648712158 0.19671738147735596 0.066105976700782776
0.55707722902297974 0.19884176552295685 0.067361161112785339
0.58740556240081787 0.19935384392738342 0.066001899540424347
0.62203454971313477 0.19891676306724548 0.065521225333213806
0.64940768480300903 0.20100691914558411 0.068742990493774414
0.68219727277755737 0.20185765624046326 0.071601346135139465
0.70946407318115234 0.20289692282676697 0.073900505900382996
0.73485255241394043 0.20408320426940918 0.079847045242786407
0.75909215211868286 0.20557045936584473 0.086639709770679474
0.78028726577758789 0.20714244246482849 0.09191778302192688
0.79925662279129028 0.20867791771888733 0.094808250665664673
0.81855392456054688 0.21004714071750641 0.096944868564605713
0.83448278903961182 0.21103449165821075 0.097678937017917633
0.8468170166015625 0.21173425018787384 0.096612468361854553
0.090226463973522186 0.21669109165668488 0.066822148859500885
0.091489322483539581 0.21528841555118561 0.066390909254550934
0.10235269367694855 0.21773228049278259 0.065447673201560974
0.11900178343057632 0.21809715032577515 0.066094763576984406
0.13859397172927856 0.21628619730472565 0.066830061376094818
0.15919409692287445 0.21832336485385895 0.066955327987670898
0.18251208961009979 0.21868206560611725 0.066863521933555603
0.20770600438117981 0.2185661792755127 0.066503264009952545
0.23516547679901123 0.21911604702472687 0.065711662173271179
0.26268526911735535 0.21807160973548889 0.067256063222885132
0.2903369665145874 0.21839451789855957 0.066772453486919403
0.31933093070983887 0.22031454741954803 0.066380716860294342
0.34717172384262085 0.21990689635276794 0.066135622560977936
0.37952312827110291 0.22177067399024963 0.066715620458126068
0.40775167942047119 0.22345262765884399 0.066533267498016357
0.43567398190498352 0.22139236330986023 0.06696726381778717
0.46575102210044861 0.22251655161380768 0.066790163516998291
0.49613854289054871 0.22132685780525208 0.06659843772649765
0.5296180248260498 0.22214201092720032 0.066757731139659882
0.56136882305145264 0.21949484944343567 0.06698058545589447
0.5913848876953125 0.22214464843273163 0.066196121275424957
0.62258762121200562 0.22207248210906982 0.066027253866195679
0.65047097206115723 0.22465033829212189 0.066275373101234436
0.68354994058609009 0.22600509226322174 0.067325428128242493
0.71256828308105469 0.22627362608909607 0.069694958627223969
0.73865097761154175 0.22785976529121399 0.079861946403980255
0.76096653938293457 0.23082186281681061 0.08784203976392746
0.77990663051605225 0.23287416994571686 0.092198476195335388
0.79985463619232178 0.2347165048122406 0.094873435795307159
0.81795197725296021 0.23620413243770599 0.096316434442996979
0.83174818754196167 0.23722398281097412 0.095980942249298096
0.84413206577301025 0.23812897503376007 0.094331920146942139
0.10184527188539505 0.24078495800495148 0.067736208438873291
0.10468235611915588 0.24155382812023163 0.067784830927848816
0.10864026844501495 0.24370436370372772 0.066298417747020721
0.11969967186450958 0.24748219549655914 0.066175565123558044
0.13767415285110474 0.24641861021518707 0.066324308514595032
0.16079914569854736 0.24522306025028229 0.066421560943126678
0.1836136132478714 0.24669700860977173 0.066239595413208008
0.20969364047050476 0.24654614925384521 0.066956691443920135
0.23499999940395355 0.24657274782657623 0.066220611333847046
0.26570674777030945 0.24738040566444397 0.065126657485961914
0.29406297206878662 0.24743948876857758 0.066565647721290588
0.32224118709564209 0.24633997678756714 0.066850289702415466
0.35007971525192261 0.24782359600067139 0.067061543464660645
0.38048297166824341 0.24892237782478333 0.066715680062770844
0.40841060876846313 0.24932503700256348 0.065742753446102142
0.43825757503509521 0.24956493079662323 0.065096579492092133
0.46663746237754822 0.24793291091918945 0.066338114440441132
0.49671703577041626 0.25254210829734802 0.068240121006965637
0.52792859077453613 0.25254476070404053 0.068243488669395447
0.55918240547180176 0.24956333637237549 0.065754808485507965
0.59344512224197388 0.25017824769020081 0.065746374428272247
0.62567764520645142 0.25173363089561462 0.067012853920459747
0.65518087148666382 0.25075781345367432 0.068310827016830444
0.69050693511962891 0.25144827365875244 0.069125287234783173
0.71994119882583618 0.25249814987182617 0.071184337139129639
0.74531435966491699 0.25527322292327881 0.077851444482803345
0.7657431960105896 0.25882822275161743 0.084445491433143616
0.78609323501586914 0.26035451889038086 0.090103618800640106
0.80483698844909668 0.26146224141120911 0.094248302280902863
0.81860631704330444 0.26241454482078552 0.095460504293441772
0.83097374439239502 0.26356431841850281 0.09503193199634552
0.84352165460586548 0.2648262083530426 0.093519747257232666
0.11646425724029541 0.26675900816917419 0.068377137184143066
0.12066332250833511 0.26687726378440857 0.068781115114688873
0.12370557337999344 0.26684349775314331 0.067977264523506165
0.1277853399515152 0.27041393518447876 0.067271336913108826
0.14166024327278137 0.27323818206787109 0.066405221819877625
0.1624196320772171 0.27133771777153015 0.065825536847114563
0.18480256199836731 0.27354982495307922 0.066045746207237244
0.21128270030021667 0.27213817834854126 0.066380716860294342
0.23687967658042908 0.273122638463974 0.066690005362033844
0.26687130331993103 0.27415475249290466 0.066490747034549713
0.29387056827545166 0.27162334322929382 0.066694349050521851
0.32411080598831177 0.27256539463996887 0.066137388348579407
0.35227182507514954 0.27298396825790405 0.066701672971248627
0.38291940093040466 0.27367708086967468 0.066587880253791809
0.41030654311180115 0.275002121925354 0.066380716860294342
0.44118115305900574 0.27654868364334106 0.06633450835943222
0.466795414686203 0.27773770689964294 0.065898165106773376
0.49711713194847107 0.28166061639785767 0.067132465541362762
0.52954041957855225 0.28069016337394714 0.068761974573135376
0.56286299228668213 0.27772229909896851 0.065975986421108246
0.59528225660324097 0.27716067433357239 0.067013345658779144
0.62558412551879883 0.27945473790168762 0.069285422563552856
0.65874522924423218 0.27700498700141907 0.069517895579338074
0.69269299507141113 0.27991873025894165 0.068137355148792267
0.72068232297897339 0.28335168957710266 0.068632319569587708
0.75238865613937378 0.28587391972541809 0.070896781980991364
0.77419883012771606 0.286815345287323 0.080514058470726013
0.79504996538162231 0.28744527697563171 0.08918318897485733
0.81030017137527466 0.28825104236602783 0.093190088868141174
0.8227083683013916 0.28950139880180359 0.094458423554897308
0.8360828161239624 0.29121172428131104 0.094516552984714508
0.84942978620529175 0.29298025369644165 0.093538276851177216
0.13025537133216858 0.2911674976348877 0.068556278944015503
0.13603310286998749 0.29006120562553406 0.069374710321426392
0.14072531461715698 0.29114580154418945 0.069491244852542877
0.14613084495067596 0.29534250497817993 0.068951725959777832
0.15107592940330505 0.29978659749031067 0.067913413047790527
0.16384801268577576 0.30204245448112488 0.066094763576984406
0.18675920367240906 0.30067282915115356 0.066893622279167175
0.21490955352783203 0.30020251870155334 0.066317334771156311
0.23783104121685028 0.30105224251747131 0.066468246281147003
0.26617643237113953 0.30089867115020752 0.066176459193229675
0.29481485486030579 0.30221074819564819 0.066927790641784668
0.32608729600906372 0.30452534556388855 0.065350562334060669
0.35577437281608582 0.30125027894973755 0.066213831305503845
0.38511088490486145 0.3021298348903656 0.066190078854560852
0.41331040859222412 0.30210798978805542 0.066759258508682251
0.44337770342826843 0.30311387777328491 0.066134452819824219
0.47100374102592468 0.30481791496276855 0.066486924886703491
0.50085914134979248 0.3039298951625824 0.066577717661857605
0.53351914882659912 0.30403304100036621 0.065573617815971375
0.56671160459518433 0.30398333072662354 0.066096320748329163
0.59595221281051636 0.30516204237937927 0.068651333451271057
0.6271291971206665 0.30758050084114075 0.070297233760356903
0.66082108020782471 0.30524933338165283 0.070228300988674164
0.69556772708892822 0.30501675605773926 0.067856334149837494
0.72654473781585693 0.30987921357154846 0.068047754466533661
0.76131027936935425 0.30801093578338623 0.071924567222595215
0.78235173225402832 0.31109604239463806 0.081227019429206848
0.80320322513580322 0.31310653686523438 0.088714323937892914
0.81861859560012817 0.3151380717754364 0.092137299478054047
0.83336591720581055 0.31770423054695129 0.094394601881504059
0.848136305809021 0.32020342350006104 0.095764555037021637
0.85893034934997559 0.3219749927520752 0.095077864825725555
0.14311316609382629 0.31462579965591431 0.068769253790378571
0.15042620897293091 0.31395259499549866 0.069871269166469574
0.15728649497032166 0.31545957922935486 0.070521757006645203
0.16325321793556213 0.3186970055103302 0.07029888778924942
0.16839292645454407 0.32228431105613708 0.069123946130275726
0.17824824154376984 0.32511609792709351 0.068965829908847809
