Color Look-Up Tables/TealOrange.cube
# Created by: Diego Duarte (opendesktop.org/u/diegoduarte/ | github.com/odiegoduarte)
TITLE "tealorange"
# LUT size
LUT_3D_SIZE 5
# Data domain
# LUT data points
DOMAIN_MIN 0.000000 0.000000 0.000000
DOMAIN_MAX 0.903226 0.903226 0.903226
0.0011864311527460814 0.0018671746365725994 0.0022040165495127439
0.17855876684188843 0.0099919214844703674 0.0017161600990220904
0.4358055591583252 0.072158820927143097 0.0026217347476631403
0.62846773862838745 0.11651814728975296 0.0027322089299559593
0.78138047456741333 0.12776106595993042 0.0042406776919960976
0.119512639939785 0.09714081883430481 0.026153983548283577
0.26329949498176575 0.095042161643505096 0.014322277158498764
0.50198757648468018 0.10934881865978241 0.00010467806714586914
0.69035249948501587 0.20518669486045837 0.0012815289665013552
0.79506170749664307 0.24480025470256805 0.004060736857354641
0.1642938107252121 0.26351451873779297 0.075589895248413086
0.34131339192390442 0.24796693027019501 0.055092573165893555
0.59244656562805176 0.2550598680973053 0.018255092203617096
0.80875283479690552 0.34271398186683655 0.010115917772054672
0.87719249725341797 0.41804209351539612 0.023395953699946404
0.158190056681633 0.44182929396629333 0.099508829414844513
0.37302759289741516 0.419432133436203 0.069203242659568787
0.63145965337753296 0.44921663403511047 0.049706507474184036
0.83281117677688599 0.52250790596008301 0.045060236006975174
0.93924152851104736 0.62377703189849854 0.10795106738805771
0.14619719982147217 0.62821274995803833 0.088978692889213562
0.37217661738395691 0.61538481712341309 0.075682170689105988
0.62739884853363037 0.64407825469970703 0.06746751070022583
0.82018852233886719 0.68978965282440186 0.069308243691921234
0.94952559471130371 0.76876205205917358 0.13882695138454437
0.025070782750844955 0.055344853550195694 0.11683610081672668
0.1678462028503418 0.085534341633319855 0.10656057298183441
0.41671165823936462 0.12917846441268921 0.1066591888666153
0.64544093608856201 0.16247078776359558 0.11609921604394913
0.79320478439331055 0.17364466190338135 0.13850249350070953
0.034536309540271759 0.10553940385580063 0.13025316596031189
0.17318163812160492 0.1332441121339798 0.10556534677743912
0.46639296412467957 0.20040860772132874 0.084425024688243866
0.69349980354309082 0.27218231558799744 0.083912737667560577
0.8066946268081665 0.31115853786468506 0.11448681354522705
0.089746035635471344 0.25322481989860535 0.21115961670875549
0.26695188879966736 0.26729318499565125 0.18925511837005615
0.56445860862731934 0.30128771066665649 0.12047645449638367
0.82436883449554443 0.39472991228103638 0.051615376025438309
0.89095628261566162 0.47452887892723083 0.097885161638259888
0.117128886282444 0.41314828395843506 0.24246472120285034
0.32558372616767883 0.43122139573097229 0.23484340310096741
0.62211650609970093 0.47784429788589478 0.20975922048091888
0.85310822725296021 0.55321568250656128 0.16258616745471954
0.97063130140304565 0.65808343887329102 0.19831006228923798
0.11690915375947952 0.60025948286056519 0.2748834490776062
0.34089785814285278 0.61656421422958374 0.26349899172782898
0.62666672468185425 0.65242630243301392 0.2471575140953064
0.84102016687393188 0.70264822244644165 0.22281622886657715
0.96386086940765381 0.76582211256027222 0.25573256611824036
0.0051515796221792698 0.10770553350448608 0.29815956950187683
0.11576186865568161 0.13482505083084106 0.3039872944355011
0.37450221180915833 0.18640752136707306 0.31358832120895386
0.6196969747543335 0.22013647854328156 0.318574458360672
0.82129323482513428 0.24036590754985809 0.33440011739730835
0.001358556910417974 0.17714038491249084 0.29794400930404663
0.059017077088356018 0.20249806344509125 0.30097794532775879
0.37995967268943787 0.29831996560096741 0.30937272310256958
0.64654529094696045 0.36301958560943604 0.30719286203384399
0.83558017015457153 0.40491834282875061 0.31818774342536926
0.023950409144163132 0.2568877637386322 0.34845492243766785
0.068575389683246613 0.27318024635314941 0.36434230208396912
0.44514644145965576 0.40660113096237183 0.35344710946083069
0.74466103315353394 0.51534116268157959 0.3550315797328949
0.88995885848999023 0.58034956455230713 0.34242194890975952
0.067603260278701782 0.39085710048675537 0.42250499129295349
0.1812959611415863 0.43751519918441772 0.45323073863983154
0.53206449747085571 0.54794985055923462 0.44883716106414795
0.835235595703125 0.65108007192611694 0.42932853102684021
0.99633932113647461 0.75612854957580566 0.39017578959465027
0.054804015904664993 0.57944756746292114 0.50858384370803833
0.23063275218009949 0.60530692338943481 0.50153404474258423
0.57024514675140381 0.69604581594467163 0.49181476235389709
0.8425554633140564 0.76032459735870361 0.4671233594417572
0.97413736581802368 0.8126416802406311 0.42683666944503784
0.0048129730857908726 0.13471993803977966 0.50226062536239624
0.10310489684343338 0.15690265595912933 0.50874710083007812
0.35659390687942505 0.21749851107597351 0.51703709363937378
0.59862214326858521 0.26019260287284851 0.55126237869262695
0.81355148553848267 0.28054887056350708 0.57162773609161377
0.0032442423980683088 0.22832809388637543 0.47360467910766602
0.07282218337059021 0.26135069131851196 0.49858146905899048
0.32496923208236694 0.3488953709602356 0.51188457012176514
0.60693562030792236 0.43041646480560303 0.54907619953155518
0.82194358110427856 0.4677405059337616 0.57368201017379761
0.00021345455024857074 0.23950402438640594 0.44567030668258667
0.040488068014383316 0.32988828420639038 0.53766822814941406
0.26840096712112427 0.45206093788146973 0.57847625017166138
0.67994862794876099 0.6011386513710022 0.59846359491348267
0.86962765455245972 0.65580505132675171 0.6075444221496582
0.01414946373552084 0.38460609316825867 0.596629798412323
0.087550967931747437 0.44992238283157349 0.64983183145523071
0.2758348286151886 0.56302791833877563 0.69735628366470337
0.80649995803833008 0.75953781604766846 0.68900913000106812
0.94812923669815063 0.81497961282730103 0.66887736320495605
0.020000835880637169 0.55310285091400146 0.6700630784034729
0.12667213380336761 0.59133970737457275 0.7088581919670105
0.41187068819999695 0.6973884105682373 0.73122888803482056
0.8235478401184082 0.83180725574493408 0.72155940532684326
0.98300200700759888 0.89017736911773682 0.69366186857223511
0.0038417412433773279 0.13410720229148865 0.66240626573562622
0.11570218950510025 0.15554611384868622 0.69380998611450195
0.35281255841255188 0.21377553045749664 0.70555979013442993
0.62961494922637939 0.27504721283912659 0.73543685674667358
0.8264700174331665 0.29648306965827942 0.78373205661773682
0.002756152069196105 0.24602939188480377 0.61006683111190796
0.088864102959632874 0.28112167119979858 0.656821608543396
0.32806169986724854 0.36682391166687012 0.69639307260513306
0.6348956823348999 0.45641008019447327 0.72664111852645874
0.82961905002593994 0.48953557014465332 0.77440339326858521
0.002014487748965621 0.33688244223594666 0.62376677989959717
0.071533940732479095 0.39557725191116333 0.68280261754989624
0.28911310434341431 0.50559598207473755 0.73983550071716309
0.67687129974365234 0.63804632425308228 0.765735924243927
0.86184191703796387 0.67936879396438599 0.79514652490615845
0.011868945322930813 0.42888540029525757 0.7013891339302063
0.070045217871665955 0.50096476078033447 0.77259927988052368
0.21806329488754272 0.61123538017272949 0.83120989799499512
0.7328789234161377 0.78901857137680054 0.84235864877700806
0.91633886098861694 0.84592354297637939 0.8409075140953064
0.013311993330717087 0.54057246446609497 0.73989534378051758
0.10767500847578049 0.59108275175094604 0.79539138078689575
0.29039737582206726 0.69378423690795898 0.86012661457061768
0.76803898811340332 0.88009458780288696 0.91247093677520752
0.99028676748275757 0.97199857234954834 0.90983831882476807
