Color Look-Up Tables/TealOrange.cube
# Created by: Diego Duarte (opendesktop.org/u/diegoduarte/ | github.com/odiegoduarte)
TITLE "tealorange"
# LUT size
LUT_3D_SIZE 32
# Data domain
DOMAIN_MIN 0.0 0.0 0.0
DOMAIN_MAX 1.0 1.0 1.0
# LUT data points
0.0011864311527460814 0.0018671746365725994 0.0022040165495127439
0.00060069176834076643 0.00068554963218048215 0.00092222669627517462
0.00051537109538912773 0.00016547479026485234 0.00026385384262539446
0.013190619647502899 0.0004664211010094732 0.00033918212284334004
0.054131906479597092 0.0012569979298859835 0.0007446396048180759
0.096195593476295471 0.0028421010356396437 0.0010663833236321807
0.13963718712329865 0.0045749079436063766 0.001326487516053021
0.17855876684188843 0.0099919214844703674 0.0017161600990220904
0.22004598379135132 0.017914015799760818 0.0021072954405099154
0.25824454426765442 0.026039788499474525 0.0022733281366527081
0.29692867398262024 0.034844920039176941 0.0024052995722740889
0.33410698175430298 0.045141249895095825 0.0025461220648139715
0.36999285221099854 0.054907526820898056 0.002665041945874691
0.40484198927879333 0.063852198421955109 0.0027121284510940313
0.4358055591583252 0.072158820927143097 0.0026217347476631403
0.46418550610542297 0.080391839146614075 0.0025154987815767527
0.49262526631355286 0.088181860744953156 0.0024673182051628828
0.52168029546737671 0.09532676637172699 0.0024664630182087421
0.55068647861480713 0.10175956040620804 0.0024980907328426838
0.578907310962677 0.1073702797293663 0.002561184810474515
0.60527223348617554 0.11236327141523361 0.0026343569625169039
0.62846773862838745 0.11651814728975296 0.0027322089299559593
0.65084469318389893 0.11988257616758347 0.0028875400312244892
0.67325383424758911 0.12267402559518814 0.0030871133785694838
0.69587349891662598 0.12495359778404236 0.003315439447760582
0.71901309490203857 0.12686866521835327 0.003556384239345789
0.7421380877494812 0.12850084900856018 0.0037878355942666531
0.76256054639816284 0.12888099253177643 0.0040149004198610783
0.78138047456741333 0.12776106595993042 0.0042406776919960976
0.80001771450042725 0.12577128410339355 0.0044478974305093288
0.81907624006271362 0.12324715405702591 0.0046272724866867065
0.83851015567779541 0.1204325258731842 0.0047640553675591946
0.0080291843041777611 0.0050494484603404999 0.0019925257656723261
0.0054590776562690735 0.0026266463100910187 0.00096070661675184965
0.00075469946023076773 0.00036802171962335706 0.00010416803706903011
0.016471769660711288 0 0
0.059247948229312897 0.00030577532015740871 0.00013400729221757501
0.10078095644712448 0.0013173411134630442 0.00044787878869101405
0.14217375218868256 0.0029555005021393299 0.00072069861926138401
0.18140758574008942 0.0089617464691400528 0.0012304083211347461
0.21944615244865417 0.018839534372091293 0.0016417610459029675
0.25893741846084595 0.027313414961099625 0.0019271555356681347
0.29810228943824768 0.037588942795991898 0.0021036195103079081
0.33543005585670471 0.048846125602722168 0.0022684980649501085
0.37210565805435181 0.059771280735731125 0.0024650020059198141
0.40660896897315979 0.069542661309242249 0.0024905023165047169
0.43678551912307739 0.078714296221733093 0.0023832707665860653
0.46507596969604492 0.087876416742801666 0.0023013979662209749
0.49403434991836548 0.096768476068973541 0.002284361282363534
0.52365249395370483 0.10503469407558441 0.0023021982051432133
0.55303794145584106 0.11242258548736572 0.0023517427034676075
0.58144408464431763 0.11905089765787125 0.0024121112655848265
0.60628503561019897 0.12469422817230225 0.0024641901254653931
0.62864238023757935 0.12915988266468048 0.0025734466034919024
0.65077406167984009 0.1330113559961319 0.0027414748910814524
0.67308443784713745 0.1363571435213089 0.0029539067763835192
0.6961635947227478 0.13946844637393951 0.0031911185942590237
0.72024118900299072 0.14281661808490753 0.0034195173066109419
0.74205750226974487 0.14514710009098053 0.0036494389642030001
0.76121103763580322 0.14543989300727844 0.0038970331661403179
0.77947866916656494 0.14448821544647217 0.0041397931054234505
0.79787164926528931 0.14283378422260284 0.0043639624491333961
0.81661081314086914 0.14087581634521484 0.0045528309419751167
0.83536136150360107 0.13848425447940826 0.0046902131289243698
0.022745827212929726 0.013425321318209171 0.0040503419004380703
0.020871205255389214 0.010572203435003757 0.0033800217788666487
0.01770385354757309 0.0071670589968562126 0.0022922707721590996
0.033872462809085846 0.0038217420224100351 0.0011026599677279592
0.067876636981964111 0.00053846987430006266 0.00012652519217226654
0.10689364373683929 0.0010614658240228891 0
0.14824637770652771 0.0061453231610357761 0.00013907125685364008
0.18840622901916504 0.012601805850863457 0.00047524954425171018
0.22345541417598724 0.018964489921927452 0.00087984098354354501
0.26275497674942017 0.02617194689810276 0.0012470049550756812
0.3017219603061676 0.038094226270914078 0.0015817121602594852
0.33951449394226074 0.050976134836673737 0.0019671726040542126
0.3763434886932373 0.062653951346874237 0.0021836790256202221
0.40977892279624939 0.07307058572769165 0.0021882124710828066
0.43945971131324768 0.083598025143146515 0.0020884673576802015
0.46868410706520081 0.09467664361000061 0.0020664080511778593
0.498859703540802 0.10513258725404739 0.0020943277049809694
0.52932393550872803 0.11449692398309708 0.0021532971877604723
0.55919629335403442 0.12290195375680923 0.0022229026071727276
0.58609604835510254 0.13021625578403473 0.0022467272356152534
0.60888469219207764 0.1359885036945343 0.0022978889755904675
0.63077372312545776 0.14103725552558899 0.0024157175794243813
0.6528933048248291 0.14566108584403992 0.0025933701545000076
0.67605704069137573 0.15020161867141724 0.0028113452717661858
0.70072323083877563 0.15521641075611115 0.0030279085040092468
0.72354549169540405 0.15939226746559143 0.0032530354801565409
0.74318939447402954 0.16127732396125793 0.0035139333922415972
0.76124817132949829 0.16155914962291718 0.0037870914675295353
0.7790648341178894 0.16094371676445007 0.0040545538067817688
0.79708480834960938 0.15994304418563843 0.004294991958886385
0.81491583585739136 0.15837424993515015 0.0044883065856993198
0.83327925205230713 0.15627560019493103 0.004636968020349741
0.040286071598529816 0.025040056556463242 0.0071668131276965141
0.040506917983293533 0.021908478811383247 0.0065897679887712002
0.044877815991640091 0.01840692013502121 0.0055848550982773304
0.06442464143037796 0.014869583770632744 0.0043181013315916061
0.092101193964481354 0.012913293205201626 0.002829449251294136
0.12261517345905304 0.012624704279005527 0.00063078774837777019
0.15920239686965942 0.017052054405212402 7.5598130933940411e-05
0.19766722619533539 0.020950876176357269 0
0.23402939736843109 0.024720612913370132 0
0.27162668108940125 0.030801836401224136 0.00043489583185873926
0.3078499436378479 0.039165079593658447 0.00086163746891543269
0.34554070234298706 0.051584430038928986 0.0014764239313080907
0.38150790333747864 0.062872357666492462 0.0017516262596473098
0.41457459330558777 0.074523270130157471 0.0017702595796436071
0.44526076316833496 0.088259153068065643 0.0017664713086560369
0.47606882452964783 0.10144247859716415 0.0018350139725953341
0.50769448280334473 0.11306983232498169 0.0019342273008078337
0.53874033689498901 0.12355752289295197 0.0020411938894540071
0.56779557466506958 0.1327565610408783 0.0020763005595654249
0.5917772650718689 0.14011131227016449 0.0020717624574899673
0.61354488134384155 0.14651501178741455 0.0021217623725533485
0.63551163673400879 0.15261633694171906 0.0022437355946749449
0.65875750780105591 0.15877830982208252 0.0024259588681161404
0.6837608814239502 0.16550284624099731 0.0026216823607683182
0.70729959011077881 0.17149186134338379 0.002834162674844265
0.7274666428565979 0.17509418725967407 0.0030986592173576355
0.74544697999954224 0.17679382860660553 0.0033937655389308929
0.76278501749038696 0.17739449441432953 0.0036990542430430651
0.78011810779571533 0.1774929016828537 0.0039878557436168194
0.79700148105621338 0.17686522006988525 0.0042388061992824078
0.81433266401290894 0.17567354440689087 0.0044541475363075733
0.83227503299713135 0.17417991161346436 0.00461586844176054
0.06021258607506752 0.0394744873046875 0.010930311866104603
0.064302124083042145 0.036373481154441833 0.010513282380998135
0.074075914919376373 0.033416494727134705 0.0096487775444984436
0.093736208975315094 0.031768489629030228 0.0083430884405970573
0.12113343179225922 0.031687468290328979 0.0064771608449518681
0.14954258501529694 0.03174079954624176 0.0042378231883049011
0.17889969050884247 0.034490067511796951 0.0022488832473754883
0.21226486563682556 0.034569911658763885 0.0008619283908046782
0.24802780151367188 0.036618411540985107 0.00015692351735197008
0.28270310163497925 0.039571557193994522 6.5321277361363173e-05
0.31858867406845093 0.045291781425476074 0.00016554420290049165
0.35412150621414185 0.054090656340122223 0.0007001369958743453
0.38922297954559326 0.062407933175563812 0.0010414773132652044
0.42316210269927979 0.076905883848667145 0.0012533344561234117
0.45469421148300171 0.093186467885971069 0.0014544245786964893
0.48782500624656677 0.10740023851394653 0.0016405161004513502
0.52011370658874512 0.12038102746009827 0.0018202483188360929
0.55098384618759155 0.13186711072921753 0.0019180141389369965
0.5772404670715332 0.14117129147052765 0.0018933913670480251
0.5992928147315979 0.14914801716804504 0.0018653891747817397
0.62112700939178467 0.1569383442401886 0.0019089267589151859
0.64435553550720215 0.164894700050354 0.0020394346211105585
0.66945487260818481 0.17340384423732758 0.0022079902701079845
0.69351065158843994 0.18124450743198395 0.0024020937271416187
0.71418386697769165 0.18667902052402496 0.0026603327132761478
0.73218762874603271 0.18997703492641449 0.002966312225908041
0.74915778636932373 0.19198682904243469 0.0032999911345541477
0.76588290929794312 0.19336210191249847 0.0036304139066487551
0.78182291984558105 0.19382227957248688 0.0039379987865686417
0.7980806827545166 0.19367650151252747 0.0042219026945531368
0.81496715545654297 0.1932419091463089 0.0044596767984330654
0.83244353532791138 0.19212806224822998 0.0046257288195192814
0.081456661224365234 0.056579109281301498 0.015412687323987484
0.088655106723308563 0.053751591593027115 0.015162446536123753
0.10121214389801025 0.052063412964344025 0.014335808344185352
0.1218729168176651 0.052019860595464706 0.012819280847907066
0.14845685660839081 0.052005752921104431 0.010933072306215763
0.17293842136859894 0.053064212203025818 0.008569854311645031
0.19683277606964111 0.054451178759336472 0.00609215022996068
0.22734150290489197 0.055488631129264832 0.0041488013230264187
0.26379072666168213 0.054290905594825745 0.0019286108436062932
0.29783251881599426 0.055121578276157379 0.0011406926205381751
0.33413434028625488 0.055827390402555466 0
0.37084901332855225 0.062704548239707947 0.0001354739215457812
0.40344685316085815 0.0714140385389328 0.00040236942004412413
0.4345228374004364 0.081625208258628845 0.00066775601590052247
0.46927246451377869 0.096855171024799347 0.0010841443436220288
0.50314152240753174 0.11259862780570984 0.0014440692029893398
0.53519386053085327 0.12684877216815948 0.0016709918854758143
0.56465238332748413 0.13861767947673798 0.0017173341475427151
0.58802586793899536 0.14854961633682251 0.00163335504475981
0.60981893539428711 0.1582832932472229 0.001578616676852107
0.63287758827209473 0.16818365454673767 0.0016469674883410335
0.6578335165977478 0.17855395376682281 0.0017881268868222833
0.68232327699661255 0.18837589025497437 0.0019637420773506165
0.70348095893859863 0.1957840621471405 0.0022079271730035543
0.72158503532409668 0.20087145268917084 0.0025129779241979122
0.73831033706665039 0.20450848340988159 0.0028624865226447582
0.75454658269882202 0.20737200975418091 0.0032236441038548946
0.76957589387893677 0.20909498631954193 0.0035837467294186354
0.78473854064941406 0.21016456186771393 0.0039352541789412498
0.8005250096321106 0.21094577014446259 0.0042491937056183815
0.81684905290603638 0.2109554260969162 0.0044965725392103195
0.83402854204177856 0.21023207902908325 0.004671245813369751
0.10161497443914413 0.075930163264274597 0.020542727783322334
0.11105005443096161 0.073737859725952148 0.020370364189147949
0.12548308074474335 0.072960391640663147 0.019420986995100975
0.14661112427711487 0.073112666606903076 0.017824318259954453
0.17041847109794617 0.073086850345134735 0.015512260608375072
0.19123029708862305 0.073481909930706024 0.012933598831295967
0.21376284956932068 0.074332162737846375 0.010912878438830376
0.24555398523807526 0.075241796672344208 0.0085663087666034698
0.27769935131072998 0.073746576905250549 0.0058039138093590736
0.31221902370452881 0.07523413747549057 0.0041073369793593884
0.34923142194747925 0.074290305376052856 0.0023812579456716776
0.3853621780872345 0.075437881052494049 0.00050168350571766496
0.41774004697799683 0.081232011318206787 0
0.45205903053283691 0.090486221015453339 0.0002220360329374671
0.48678916692733765 0.10131268948316574 0.00058343179989606142
0.52024883031845093 0.11700345575809479 0.001062121125869453
0.55239248275756836 0.13153433799743652 0.0013208878226578236
0.57933485507965088 0.14410382509231567 0.0013358829310163856
0.60144728422164917 0.15620362758636475 0.0012126724468544126
0.62426996231079102 0.16819439828395844 0.0012284680269658566
0.64883452653884888 0.18043974041938782 0.0013549274299293756
0.67381161451339722 0.19248576462268829 0.0015209212433546782
0.69549572467803955 0.2020953893661499 0.0017474240157753229
0.71374303102493286 0.20919890701770782 0.0020416046027094126
0.73035514354705811 0.21472880244255066 0.0023937425576150417
0.74626630544662476 0.21933494508266449 0.0027715445030480623
0.76044631004333496 0.22252358496189117 0.003176405094563961
0.7745128870010376 0.22501470148563385 0.003591249929741025
0.78917950391769409 0.22720681130886078 0.0039778240025043488
0.80431479215621948 0.22853204607963562 0.0043106521479785442
0.82029163837432861 0.22905117273330688 0.0045774630270898342
0.83719789981842041 0.22879940271377563 0.0047675580717623234
0.119512639939785 0.09714081883430481 0.026153983548283577
0.1308060884475708 0.095340318977832794 0.025953261181712151
0.1461595743894577 0.094572506844997406 0.025173937901854515
0.16752088069915771 0.094350337982177734 0.023285785689949989
0.18829351663589478 0.093414977192878723 0.021111566573381424
0.20733177661895752 0.093268424272537231 0.019392276182770729
0.23228311538696289 0.094628393650054932 0.017196554690599442
0.26329949498176575 0.095042161643505096 0.014322277158498764
0.29361268877983093 0.09509691596031189 0.011152607388794422
0.32766732573509216 0.096367709338665009 0.0087758889421820641
0.36498317122459412 0.095715031027793884 0.0066547063179314137
0.40244612097740173 0.09342058002948761 0.0029103686101734638
0.43588539958000183 0.097208894789218903 0.0010760504519566894
0.46900901198387146 0.10048498213291168 0
0.50198757648468018 0.10934881865978241 0.00010467806714586914
0.53835278749465942 0.12001609802246094 0.00026426147087477148
0.57119607925415039 0.13495561480522156 0.00066938437521457672
0.59553593397140503 0.15022405982017517 0.00074371614027768373
0.61862105131149292 0.1644437313079834 0.00076889689080417156
0.642852783203125 0.17863745987415314 0.00090281566372141242
0.66792404651641846 0.19302929937839508 0.0010743609163910151
0.69035249948501587 0.20518669486045837 0.0012815289665013552
0.70874482393264771 0.2146105170249939 0.0015585666988044977
0.72536683082580566 0.22239325940608978 0.0019030591938644648
0.74117600917816162 0.22906921803951263 0.0022834355477243662
0.75461053848266602 0.23396193981170654 0.0027221692726016045
0.7676042914390564 0.23812034726142883 0.0031920946203172207
0.78115564584732056 0.24195608496665955 0.0036431308835744858
0.79506170749664307 0.24480025470256805 0.004060736857354641
0.80978798866271973 0.24678011238574982 0.0044296043924987316
0.82545655965805054 0.24791057407855988 0.0047333273105323315
0.84206616878509521 0.24816834926605225 0.0049511827528476715
0.13469552993774414 0.11950770765542984 0.032176811248064041
0.1469501256942749 0.11740114539861679 0.032283302396535873
0.16370278596878052 0.11660011112689972 0.031446054577827454
0.18414695560932159 0.11514507979154587 0.029831994324922562
0.20217069983482361 0.11394264549016953 0.028529373928904533
0.22219717502593994 0.1145276203751564 0.026494543999433517
0.24861811101436615 0.11583617329597473 0.023473361507058144
0.27767729759216309 0.11635712534189224 0.020121708512306213
0.30782032012939453 0.11715158075094223 0.016757208853960037
0.34307587146759033 0.1179082989692688 0.014139587059617043
0.38156366348266602 0.11513455957174301 0.011440430767834187
0.41712120175361633 0.11422544717788696 0.0075714495033025742
0.44968670606613159 0.11655043065547943 0.0042879832908511162
0.48320117592811584 0.1194443479180336 0.0025161129888147116
0.51984769105911255 0.12361977994441986 0.00057156791444867849
0.55469781160354614 0.13062012195587158 8.1026708357967436e-05
0.59016633033752441 0.14134685695171356 0.00015751237515360117
0.61602354049682617 0.15648743510246277 0.00027765572303906083
0.64046722650527954 0.17287485301494598 0.00044784633792005479
0.66477209329605103 0.1895691305398941 0.00063523254357278347
0.68798667192459106 0.20456773042678833 0.00081741204485297203
0.70663332939147949 0.21671812236309052 0.0010749018983915448
0.72334980964660645 0.22725217044353485 0.0014078691601753235
0.73934221267700195 0.23642942309379578 0.0017803135560825467
0.75221925973892212 0.24332059919834137 0.0022407474461942911
0.76420718431472778 0.24943864345550537 0.0027537036221474409
0.77668190002441406 0.25518116354942322 0.0032560592517256737
0.78932231664657593 0.25976192951202393 0.0037522311322391033
0.80273091793060303 0.26341664791107178 0.0042286990210413933
0.81709557771682739 0.26615804433822632 0.0046672080643475056
0.83244198560714722 0.26796555519104004 0.0050478344783186913
0.84871560335159302 0.26887142658233643 0.0053374888375401497
0.1464180201292038 0.14224183559417725 0.038874194025993347
0.15972831845283508 0.14018061757087708 0.039091102778911591
0.17750923335552216 0.13866332173347473 0.038360744714736938
0.19553183019161224 0.13660603761672974 0.037546928972005844
0.21379753947257996 0.13586105406284332 0.036093808710575104
0.23586377501487732 0.13665598630905151 0.033246506005525589
0.2621249258518219 0.13774046301841736 0.029625669121742249
0.28987753391265869 0.13847889006137848 0.02585231140255928
0.32072687149047852 0.13908129930496216 0.02260654978454113
0.35737857222557068 0.1384483277797699 0.01988857239484787
0.39471685886383057 0.13599511981010437 0.016551002860069275
0.42964789271354675 0.13543348014354706 0.011948359198868275
0.46318703889846802 0.13757164776325226 0.0077837537974119186
0.49838784337043762 0.14073620736598969 0.0057890955358743668
0.53588533401489258 0.14442320168018341 0.0034257427323609591
0.56985390186309814 0.14960795640945435 0.0019452064298093319
0.60494625568389893 0.1535266637802124 0.00050768384244292974
0.64129787683486938 0.1647576242685318 0.00010309290519217029
0.664512038230896 0.18222910165786743 0.0002333998418180272
0.68725442886352539 0.20015081763267517 0.00042311727884225547
0.70712000131607056 0.21546146273612976 0.00064199086045846343
0.72410440444946289 0.2292967289686203 0.0009585185325704515
0.74063611030578613 0.24142561852931976 0.0013145968550816178
0.75332659482955933 0.25065994262695312 0.0017824169481173158
0.76448076963424683 0.25907477736473083 0.0023226032499223948
0.77597755193710327 0.26699367165565491 0.0028598583303391933
0.78733175992965698 0.27352815866470337 0.0034227701835334301
0.79934513568878174 0.27906641364097595 0.0040078870952129364
0.81231141090393066 0.28362691402435303 0.0046025956980884075
0.82630318403244019 0.28721097111701965 0.0051926663145422935
0.8413083553314209 0.28990867733955383 0.0057585136964917183
0.85690444707870483 0.29140388965606689 0.0061663924716413021
0.15493014454841614 0.1657598614692688 0.045974180102348328
0.16944541037082672 0.16353811323642731 0.046268604695796967
0.18651700019836426 0.16117870807647705 0.046108987182378769
0.20406760275363922 0.15920922160148621 0.045302044600248337
0.22441542148590088 0.1585005521774292 0.043152805417776108
0.24790576100349426 0.1590922623872757 0.039826732128858566
0.27383720874786377 0.15948615968227386 0.036075841635465622
0.30135008692741394 0.15982617437839508 0.032459292560815811
0.33294713497161865 0.1608458012342453 0.02889958955347538
0.36960890889167786 0.15979009866714478 0.025362871587276459
0.40628260374069214 0.15753328800201416 0.020977580919861794
0.44131806492805481 0.15673485398292542 0.015785528346896172
0.47592455148696899 0.15907476842403412 0.011574309319257736
0.51224088668823242 0.16222584247589111 0.0090742772445082664
0.54760611057281494 0.16607473790645599 0.0063334614969789982
0.58259540796279907 0.16953206062316895 0.0041897846385836601
0.61827600002288818 0.17371049523353577 0.0026837675832211971
0.65763914585113525 0.18427956104278564 0.001440651249140501
0.68517285585403442 0.19642540812492371 0.00062178028747439384
0.70765817165374756 0.21309028565883636 0.00046782387653365731
0.72647112607955933 0.2296479195356369 0.00071036466397345066
0.74423867464065552 0.24475735425949097 0.0010333256796002388
0.75769048929214478 0.25652819871902466 0.00147519342135638
0.76845079660415649 0.26748725771903992 0.0020105205476284027
0.77918392419815063 0.27775219082832336 0.0025634060148149729
0.78927314281463623 0.28640657663345337 0.0031815110705792904
0.7998165488243103 0.29400190711021423 0.0038741361349821091
0.81127053499221802 0.30054774880409241 0.0046445932239294052
0.82376950979232788 0.3060549795627594 0.0054827057756483555
0.83733254671096802 0.31061756610870361 0.0063695651479065418
0.85154885053634644 0.31386083364486694 0.0071731344796717167
0.86624586582183838 0.31546804308891296 0.0076348446309566498
0.16056592762470245 0.18993066251277924 0.053410395979881287
0.17564694583415985 0.1871999204158783 0.053983710706233978
0.19226983189582825 0.18448977172374725 0.053915645927190781
0.21155007183551788 0.1824495792388916 0.052462141960859299
0.23384876549243927 0.18159171938896179 0.04981260746717453
0.2582298219203949 0.18115130066871643 0.046621009707450867
0.284108966588974 0.18069405853748322 0.04323587566614151
0.31244155764579773 0.18141120672225952 0.039534498006105423
0.34441658854484558 0.18288470804691315 0.035031396895647049
0.38060525059700012 0.18172776699066162 0.030006643384695053
0.41700583696365356 0.17940673232078552 0.024657564237713814
0.45264029502868652 0.17851155996322632 0.019337551668286324
0.48790362477302551 0.18129913508892059 0.015237897634506226
0.52362418174743652 0.18407547473907471 0.011997420340776443
0.55938398838043213 0.1872372031211853 0.008943864144384861
0.59577029943466187 0.19149221479892731 0.0068924194201827049
0.63415133953094482 0.19757026433944702 0.0053720208816230297
0.67020410299301147 0.2072683721780777 0.0038342967163771391
0.70083004236221313 0.21895311772823334 0.0025373962707817554
0.7270275354385376 0.23332761228084564 0.0013989721192047
0.74752223491668701 0.24886517226696014 0.0013378701405599713
0.76398342847824097 0.26314374804496765 0.0016853014240041375
0.77571892738342285 0.27614733576774597 0.0021059650462120771
0.78614497184753418 0.28837752342224121 0.0026233391836285591
0.79511409997940063 0.29908323287963867 0.0032949123997241259
0.80415928363800049 0.30877253413200378 0.0040986086241900921
0.81399965286254883 0.3173578679561615 0.0050517893396317959
0.82486295700073242 0.32482421398162842 0.006142019759863615
0.83680284023284912 0.33122739195823669 0.0073489947244524956
0.849437415599823 0.33612850308418274 0.0085618002340197563
0.86261188983917236 0.3392670750617981 0.0094946054741740227
0.87657064199447632 0.34098020195960999 0.0099600404500961304
0.16347308456897736 0.21439658105373383 0.061108220368623734
0.17896382510662079 0.21103538572788239 0.061711017042398453
