Color Look-Up Tables/VintageStyle.cube
# Created by: Diego Duarte (opendesktop.org/u/diegoduarte/ | github.com/odiegoduarte/kdenlive)
TITLE "VintageStyle"
# LUT size
LUT_3D_SIZE 32
# Data domain
DOMAIN_MIN 0.0 0.0 0.0
DOMAIN_MAX 1.0 1.0 1.0
# LUT data points
0.06019732728600502 0.04773881658911705 0.039246074855327606
0.065169379115104675 0.046001430600881577 0.03695601224899292
0.076342642307281494 0.043369796127080917 0.034316264092922211
0.090073652565479279 0.043047685176134109 0.034793078899383545
0.111223503947258 0.047231558710336685 0.038030002266168594
0.13164027035236359 0.053909853100776672 0.038938276469707489
0.15576322376728058 0.05504482239484787 0.041064977645874023
0.18085679411888123 0.055900309234857559 0.043128140270709991
0.20130379498004913 0.05296919122338295 0.041023682802915573
0.2280362993478775 0.054452899843454361 0.044617250561714172
0.25705137848854065 0.058501221239566803 0.048576496541500092
0.28584003448486328 0.060972508043050766 0.049270279705524445
0.31437799334526062 0.061247937381267548 0.046108558773994446
0.34694629907608032 0.068446934223175049 0.051902893930673599
0.38208889961242676 0.075664825737476349 0.065658308565616608
0.4183519184589386 0.078900493681430817 0.082962624728679657
0.4559558629989624 0.084859117865562439 0.088429294526576996
0.49490496516227722 0.090384110808372498 0.095018260180950165
0.53262591361999512 0.094048723578453064 0.10398011654615402
0.56798863410949707 0.099143989384174347 0.11051169782876968
0.60367327928543091 0.10795849561691284 0.1151546984910965
0.64194625616073608 0.118244968354702 0.11720684170722961
0.68203091621398926 0.12949298322200775 0.11614543199539185
0.72092127799987793 0.14185750484466553 0.11463917791843414
0.74956881999969482 0.15041258931159973 0.11408078670501709
0.76282542943954468 0.15338690578937531 0.11488384008407593
0.77073764801025391 0.15354461967945099 0.11540157347917557
0.7781943678855896 0.15223394334316254 0.11507494002580643
0.78664696216583252 0.14997480809688568 0.1139848530292511
0.79658323526382446 0.14708687365055084 0.11230424791574478
0.80796456336975098 0.14370293915271759 0.11005046218633652
0.82111048698425293 0.13977429270744324 0.10720740258693695
0.063196860253810883 0.052695933729410172 0.040381450206041336
0.064722135663032532 0.05038982629776001 0.03874685987830162
0.07755560427904129 0.051436670124530792 0.038728587329387665
0.094265617430210114 0.052495744079351425 0.038203202188014984
0.11125028133392334 0.054655600339174271 0.039011571556329727
0.13187703490257263 0.05681084468960762 0.038249935954809189
0.15374617278575897 0.056937310844659805 0.038831960409879684
0.18020813167095184 0.059756182134151459 0.042727701365947723
0.20113573968410492 0.057890187948942184 0.042346589267253876
0.22762192785739899 0.060152161866426468 0.04393744096159935
0.25346565246582031 0.062152475118637085 0.04940946027636528
0.28289127349853516 0.067876420915126801 0.051937397569417953
0.31217077374458313 0.065801940858364105 0.045808594673871994
0.34423986077308655 0.073060818016529083 0.046101074665784836
0.38055980205535889 0.081966660916805267 0.062730729579925537
0.41708105802536011 0.086849935352802277 0.076775901019573212
0.45483905076980591 0.091538995504379272 0.086350522935390472
0.49300086498260498 0.097515173256397247 0.092965088784694672
0.5304834246635437 0.10149161517620087 0.10202479362487793
0.56689876317977905 0.10525543987751007 0.11101613193750381
0.60341811180114746 0.11489439755678177 0.11609113961458206
0.64302289485931396 0.12607914209365845 0.11914917081594467
0.68334972858428955 0.13735848665237427 0.11848058551549911
0.7220807671546936 0.1500365138053894 0.11759690195322037
0.75029778480529785 0.15880988538265228 0.1171833872795105
0.76230484247207642 0.16175070405006409 0.11809871345758438
0.76937669515609741 0.16199681162834167 0.1184757798910141
0.77639585733413696 0.16104231774806976 0.11794599145650864
0.78463244438171387 0.15941648185253143 0.11678998917341232
0.79406875371932983 0.15714024007320404 0.11496530473232269
0.8052099347114563 0.15414020419120789 0.11234975606203079
0.81833314895629883 0.15065304934978485 0.10921088606119156
0.075939886271953583 0.070077411830425262 0.04591505229473114
0.079885855317115784 0.069998465478420258 0.045687358826398849
0.086777903139591217 0.070023365318775177 0.043146256357431412
0.10134672373533249 0.070393696427345276 0.042021781206130981
0.11779177188873291 0.072651959955692291 0.041774332523345947
0.13739417493343353 0.073289714753627777 0.042965807020664215
0.15652993321418762 0.073917478322982788 0.043446429073810577
0.17910841107368469 0.07633315771818161 0.044071141630411148
0.20504201948642731 0.076322749257087708 0.044292714446783066
0.22936983406543732 0.077703185379505157 0.045990597456693649
0.25481006503105164 0.079188041388988495 0.047540746629238129
0.2847493588924408 0.082312382757663727 0.04979967325925827
0.31203711032867432 0.086582042276859283 0.052716407924890518
0.34287792444229126 0.088266186416149139 0.051932103931903839
0.3774888813495636 0.08956446498632431 0.052862059324979782
0.41519245505332947 0.096784599125385284 0.066437996923923492
0.4529985785484314 0.10260014235973358 0.077695123851299286
0.48932087421417236 0.10780705511569977 0.083391919732093811
0.52689951658248901 0.11142261326313019 0.092638447880744934
0.5652279257774353 0.11762747913599014 0.10497287660837173
0.60454100370407104 0.12776857614517212 0.11305539309978485
0.64622867107391357 0.13714037835597992 0.11735750734806061
0.68650197982788086 0.14467331767082214 0.11902862787246704
0.72511422634124756 0.1557343453168869 0.11909746378660202
0.75259542465209961 0.16444545984268188 0.11925935745239258
0.76287776231765747 0.16745299100875854 0.1207304447889328
0.76916611194610596 0.16850054264068604 0.12128633260726929
0.77610510587692261 0.16876024007797241 0.12099830806255341
0.78362947702407837 0.16794700920581818 0.11978378146886826
0.79259669780731201 0.16609247028827667 0.11747945845127106
0.80367529392242432 0.16366660594940186 0.11453908681869507
0.81681513786315918 0.16080334782600403 0.11115282028913498
0.089960500597953796 0.091627351939678192 0.052274782210588455
0.09257468581199646 0.091069296002388 0.051570400595664978
0.09653075784444809 0.090318553149700165 0.046063333749771118
0.11034128814935684 0.091928422451019287 0.047478627413511276
0.12562088668346405 0.092205874621868134 0.04411764070391655
0.14323811233043671 0.092950902879238129 0.047046400606632233
0.16120722889900208 0.093854501843452454 0.045351158827543259
0.18383489549160004 0.094866238534450531 0.047261025756597519
0.20772542059421539 0.09625755250453949 0.047815285623073578
0.23122428357601166 0.097167268395423889 0.048156172037124634
0.25718343257904053 0.10143075883388519 0.049876224249601364
0.28624695539474487 0.10346946865320206 0.055161375552415848
0.31544077396392822 0.1039070263504982 0.054766863584518433
0.34553343057632446 0.10674493014812469 0.058784779161214828
0.38180217146873474 0.10810695588588715 0.059949867427349091
0.4138546884059906 0.10970072448253632 0.061001170426607132
0.45187047123908997 0.11545649915933609 0.069878794252872467
0.49037867784500122 0.11709226667881012 0.072801284492015839
0.52499216794967651 0.12042228877544403 0.083188369870185852
0.56553614139556885 0.13175588846206665 0.098417527973651886
0.6090627908706665 0.14006628096103668 0.10906492918729782
0.6513550877571106 0.14719158411026001 0.11363600939512253
0.69178760051727295 0.15299324691295624 0.11745860427618027
0.73006910085678101 0.15953139960765839 0.11807449907064438
0.75684916973114014 0.16735127568244934 0.12048599123954773
0.76510339975357056 0.17181956768035889 0.12351392954587936
0.77151644229888916 0.17499397695064545 0.12478958815336227
0.77728384733200073 0.17624974250793457 0.12456902116537094
0.78375166654586792 0.17589074373245239 0.1227823942899704
0.79251939058303833 0.17481118440628052 0.12017039954662323
0.80358427762985229 0.17320014536380768 0.11702132225036621
0.81673270463943481 0.17109990119934082 0.11343805491924286
0.10551804304122925 0.11167954653501511 0.062632434070110321
0.10906857997179031 0.11056336015462875 0.06308533251285553
0.11478832364082336 0.11048557609319687 0.060870334506034851
0.12575651705265045 0.11267700046300888 0.062875188887119293
0.13651283085346222 0.11433933675289154 0.058866601437330246
0.15052057802677155 0.11492439359426498 0.058119691908359528
0.1658535897731781 0.11390146613121033 0.053501155227422714
0.1880822479724884 0.11577325314283371 0.051079113036394119
0.2112768143415451 0.11748711764812469 0.05171947181224823
0.23699143528938293 0.117327980697155 0.052761450409889221
0.26010867953300476 0.11936704814434052 0.055184531956911087
0.28987205028533936 0.12272549420595169 0.057316210120916367
0.31767573952674866 0.12643678486347198 0.061554107815027237
0.34687924385070801 0.12618856132030487 0.062635898590087891
0.38247647881507874 0.13167980313301086 0.067647598683834076
0.42063605785369873 0.13237123191356659 0.075877919793128967
0.45579895377159119 0.13526199758052826 0.080785982310771942
0.49714267253875732 0.13752305507659912 0.083864577114582062
0.53139245510101318 0.13970792293548584 0.090104714035987854
0.57124173641204834 0.14625152945518494 0.098968110978603363
0.61477100849151611 0.1515992134809494 0.10618865489959717
0.65633970499038696 0.15850457549095154 0.11236776411533356
0.69508516788482666 0.16381442546844482 0.1178058385848999
0.73529833555221558 0.1668400764465332 0.11846102774143219
0.76238828897476196 0.17286533117294312 0.12325847148895264
0.77126777172088623 0.17926444113254547 0.12822549045085907
0.77604031562805176 0.18326781690120697 0.12980912625789642
0.77935415506362915 0.1850525289773941 0.12909282743930817
0.78526794910430908 0.18581454455852509 0.12718027830123901
0.79391169548034668 0.18582820892333984 0.1245129257440567
0.80493056774139404 0.18515788018703461 0.12125532329082489
0.81804144382476807 0.18386255204677582 0.11751224845647812
0.12083609402179718 0.13247241079807281 0.073467619717121124
0.1259581446647644 0.13172417879104614 0.073977306485176086
0.13292203843593597 0.13218735158443451 0.074905179440975189
0.14311033487319946 0.13335625827312469 0.076324857771396637
0.15251658856868744 0.13525809347629547 0.074949741363525391
0.16364237666130066 0.13750120997428894 0.071674853563308716
0.17985250055789948 0.13856631517410278 0.068915680050849915
0.19531460106372833 0.13838456571102142 0.058834146708250046
0.21720005571842194 0.13877515494823456 0.057279374450445175
0.24338781833648682 0.14059622585773468 0.057869710028171539
0.26672062277793884 0.14184218645095825 0.061220858246088028
0.29664826393127441 0.14321230351924896 0.068503640592098236
0.32450142502784729 0.14789962768554688 0.075413085520267487
0.35508576035499573 0.1497512012720108 0.07756979763507843
0.38710677623748779 0.15206889808177948 0.079503059387207031
0.42638093233108521 0.1544308066368103 0.085179515182971954
0.46207708120346069 0.1563839316368103 0.089114651083946228
0.49985405802726746 0.15857799351215363 0.091817855834960938
0.54130840301513672 0.16393700242042542 0.097274325788021088
0.5781632661819458 0.16675397753715515 0.10058146715164185
0.62005400657653809 0.16993445158004761 0.10602913051843643
0.66012585163116455 0.17637480795383453 0.11216464638710022
0.69544166326522827 0.17885473370552063 0.11850432306528091
0.73095518350601196 0.18465113639831543 0.12720628082752228
0.76370060443878174 0.19050316512584686 0.1343216598033905
0.77800524234771729 0.19456988573074341 0.13825042545795441
0.77942568063735962 0.19766215980052948 0.1385892778635025
0.78176283836364746 0.19999729096889496 0.13743001222610474
0.78748738765716553 0.20152358710765839 0.13530510663986206
0.79606002569198608 0.20227339863777161 0.13242974877357483
0.80702447891235352 0.20227856934070587 0.12894280254840851
0.82007211446762085 0.20158693194389343 0.12494446337223053
0.13397790491580963 0.15452288091182709 0.083351179957389832
0.14026454091072083 0.15408642590045929 0.084479935467243195
0.14853188395500183 0.15466944873332977 0.086739309132099152
0.15854275226593018 0.15618705749511719 0.08844311535358429
0.16822035610675812 0.15899677574634552 0.087077468633651733
0.17856572568416595 0.16232511401176453 0.084195218980312347
0.19283501803874969 0.16255664825439453 0.079959891736507416
0.20311400294303894 0.15840071439743042 0.06887325644493103
0.22247348725795746 0.15974980592727661 0.066027730703353882
0.24742792546749115 0.16317731142044067 0.068000271916389465
0.26815015077590942 0.16359631717205048 0.063503153622150421
0.29771313071250916 0.1650816947221756 0.070033304393291473
0.3288748562335968 0.16787369549274445 0.079425975680351257
0.35878494381904602 0.16963046789169312 0.083840787410736084
0.39212068915367126 0.17234201729297638 0.088659681379795074
0.42936187982559204 0.17602835595607758 0.093001633882522583
0.46604037284851074 0.17894183099269867 0.096785061061382294
0.50581812858581543 0.18263733386993408 0.10142148286104202
0.54309660196304321 0.1870388388633728 0.10745318233966827
0.58141213655471802 0.18794777989387512 0.10906073451042175
0.62391120195388794 0.19112968444824219 0.11126295477151871
0.66377198696136475 0.19865481555461884 0.11744778603315353
0.69682896137237549 0.20223368704319 0.1258794367313385
0.72934472560882568 0.20690514147281647 0.1363920122385025
0.75679910182952881 0.2118740975856781 0.1444665789604187
0.77455818653106689 0.21569891273975372 0.14868165552616119
0.77990806102752686 0.21837992966175079 0.14916598796844482
0.78351020812988281 0.22049881517887115 0.14776913821697235
0.78959667682647705 0.22211559116840363 0.14538882672786713
0.79832935333251953 0.22310516238212585 0.14223912358283997
0.80933809280395508 0.22342784702777863 0.13846218585968018
0.82235348224639893 0.22310119867324829 0.13417081534862518
0.14479662477970123 0.17768561840057373 0.092263936996459961
0.15231393277645111 0.17751644551753998 0.093909576535224915
0.1618695855140686 0.17842519283294678 0.096783161163330078
0.1722734123468399 0.18058925867080688 0.098513960838317871
0.18261611461639404 0.18382351100444794 0.097048282623291016
0.19268342852592468 0.18725866079330444 0.094337157905101776
0.2034233957529068 0.18785211443901062 0.08964085578918457
0.21541360020637512 0.18583343923091888 0.079801298677921295
0.23157389461994171 0.18715211749076843 0.074183270335197449
0.25302955508232117 0.18867537379264832 0.073369041085243225
0.27933332324028015 0.18837851285934448 0.069376483559608459
0.30603092908859253 0.18855269253253937 0.072609305381774902
0.33535593748092651 0.19106505811214447 0.080030828714370728
0.3670487105846405 0.19393880665302277 0.08497987687587738
0.40189984440803528 0.19581295549869537 0.092741549015045166
0.43508195877075195 0.19753259420394897 0.10100680589675903
0.46838662028312683 0.2011139839887619 0.10657255351543427
0.50805175304412842 0.20562413334846497 0.11240200698375702
0.54491168260574341 0.20965933799743652 0.11694583296775818
0.5825575590133667 0.21150274574756622 0.11797532439231873
0.62259477376937866 0.2145952582359314 0.12008611112833023
0.66111993789672852 0.221049964427948 0.12626215815544128
0.69756579399108887 0.22642862796783447 0.13530327379703522
0.72873139381408691 0.23036760091781616 0.14426533877849579
0.75000697374343872 0.23408554494380951 0.15136066079139709
0.76624751091003418 0.23790709674358368 0.15577545762062073
0.77766537666320801 0.24094593524932861 0.15764264762401581
0.78465938568115234 0.24296741187572479 0.15670959651470184
0.79177629947662354 0.24450278282165527 0.154383584856987
0.80088561773300171 0.24560797214508057 0.15123091638088226
0.81202876567840576 0.24616213142871857 0.14738422632217407
0.82504183053970337 0.24613077938556671 0.14295682311058044
0.15378120541572571 0.20196753740310669 0.10010499507188797
0.16276365518569946 0.2021411657333374 0.10229610651731491
0.17366816103458405 0.2035226970911026 0.10568585246801376
0.18477101624011993 0.20601834356784821 0.10697430372238159
0.19571608304977417 0.20864458382129669 0.10559912025928497
0.20475539565086365 0.21107533574104309 0.10283548384904861
0.21410953998565674 0.21229982376098633 0.097247377038002014
0.22635054588317871 0.21180890500545502 0.086594462394714355
0.23959031701087952 0.21256954967975616 0.079902365803718567
0.25875893235206604 0.21254423260688782 0.078020110726356506
0.28545817732810974 0.21053074300289154 0.069795437157154083
0.31088569760322571 0.20903308689594269 0.06842678040266037
0.33942949771881104 0.21453137695789337 0.078063309192657471
0.37131953239440918 0.21752066910266876 0.08306024968624115
0.40706425905227661 0.21968473494052887 0.09244035929441452
0.43995153903961182 0.22143541276454926 0.10198085010051727
0.47461682558059692 0.22455446422100067 0.11107903718948364
0.51076292991638184 0.22801382839679718 0.11775438487529755
0.54803580045700073 0.23307628929615021 0.12079975754022598
0.58476024866104126 0.23670431971549988 0.12319733947515488
0.622062087059021 0.23943537473678589 0.12679482996463776
0.65858924388885498 0.2444523423910141 0.13291923701763153
0.69401514530181885 0.25057214498519897 0.14230339229106903
0.72450125217437744 0.25365361571311951 0.14958557486534119
0.74684631824493408 0.25640749931335449 0.15709714591503143
0.76157557964324951 0.26031064987182617 0.16242456436157227
0.77414041757583618 0.26390555500984192 0.16445817053318024
0.78501194715499878 0.26635128259658813 0.16395144164562225
0.79409497976303101 0.2678065299987793 0.16177012026309967
0.80386477708816528 0.26882600784301758 0.15860512852668762
0.81524378061294556 0.26949632167816162 0.15477505326271057
0.82829254865646362 0.26970866322517395 0.15034738183021545
0.16145838797092438 0.22740171849727631 0.10703831911087036
0.17265629768371582 0.22769357264041901 0.1102311909198761
0.18437016010284424 0.22878177464008331 0.1131204292178154
0.19543573260307312 0.23047702014446259 0.11335482448339462
0.20506793260574341 0.23219065368175507 0.11242479085922241
0.2134532630443573 0.23352058231830597 0.11054610460996628
0.2245984822511673 0.23358331620693207 0.1042390763759613
0.23605895042419434 0.23287525773048401 0.095699004828929901
0.24914698302745819 0.23232713341712952 0.091235414147377014
0.26726716756820679 0.23237946629524231 0.089177452027797699
0.28889903426170349 0.23121537268161774 0.083650179207324982
0.31738048791885376 0.2341429740190506 0.081706933677196503
0.34359711408615112 0.23766537010669708 0.081169180572032928
0.37465125322341919 0.2399667352437973 0.083803266286849976
0.40922242403030396 0.24186250567436218 0.093742154538631439
0.44368341565132141 0.24508288502693176 0.10161948949098587
0.47990164160728455 0.24908442795276642 0.11056841164827347
0.51471340656280518 0.25182256102561951 0.11959709972143173
0.55083543062210083 0.25582930445671082 0.12280472368001938
0.58797520399093628 0.26016765832901001 0.12456557899713516
0.62326663732528687 0.26436057686805725 0.12984974682331085
0.65670323371887207 0.26945605874061584 0.13663405179977417
0.68931609392166138 0.27466875314712524 0.14532750844955444
0.71740257740020752 0.27701860666275024 0.15344437956809998
0.74110293388366699 0.27913832664489746 0.1622404009103775
0.75934463739395142 0.28268584609031677 0.16861425340175629
0.77358269691467285 0.28668150305747986 0.17139454185962677
0.78537040948867798 0.28972211480140686 0.17112867534160614
0.79598730802536011 0.29148650169372559 0.168718621134758
0.80680173635482788 0.29250305891036987 0.16519901156425476
0.81880968809127808 0.29316708445549011 0.16102926433086395
0.83210456371307373 0.29351514577865601 0.15649457275867462
0.16876213252544403 0.25308814644813538 0.11349425464868546
0.18105733394622803 0.25244417786598206 0.11648359149694443
0.19232001900672913 0.25293287634849548 0.11798177659511566
0.20263047516345978 0.25397568941116333 0.11869516223669052
0.2113671749830246 0.25509807467460632 0.11899060010910034
0.22070278227329254 0.25556144118309021 0.11743084341287613
0.23249863088130951 0.25422698259353638 0.11319683492183685
0.24429647624492645 0.25294628739356995 0.10874321311712265
0.25909528136253357 0.25206273794174194 0.10490839928388596
0.27720969915390015 0.25304573774337769 0.1017855703830719
0.29898750782012939 0.25465792417526245 0.1003393828868866
0.32687368988990784 0.25944125652313232 0.099035121500492096
0.35506826639175415 0.2613639235496521 0.09573838859796524
0.38163641095161438 0.26109334826469421 0.092141397297382355
0.41157227754592896 0.26225897669792175 0.095399603247642517
0.44871103763580322 0.2684289813041687 0.10289755463600159
0.4857863187789917 0.27398958802223206 0.11061053723096848
0.52029889822006226 0.27613905072212219 0.11745878309011459
0.55535364151000977 0.27830040454864502 0.12290975451469421
0.59131497144699097 0.28260359168052673 0.12642568349838257
0.62402927875518799 0.28770101070404053 0.1321866512298584
0.65568751096725464 0.294300377368927 0.13806544244289398
0.68366837501525879 0.29879564046859741 0.14596031606197357
0.71002477407455444 0.30103042721748352 0.15558721125125885
0.73489987850189209 0.30285456776618958 0.16549873352050781
0.75574862957000732 0.30569130182266235 0.17291709780693054
0.77318191528320312 0.30944675207138062 0.17673979699611664
0.78702706098556519 0.31269600987434387 0.17738822102546692
0.79850131273269653 0.31474551558494568 0.175413578748703
0.80975204706192017 0.31601384282112122 0.17196474969387054
0.8218645453453064 0.31684863567352295 0.16776381433010101
0.83515852689743042 0.31736847758293152 0.16313780844211578
0.17463997006416321 0.27669483423233032 0.11830171197652817
0.18752126395702362 0.27520549297332764 0.12105643749237061
0.19907547533512115 0.27460148930549622 0.12324094027280807
0.20910930633544922 0.27462303638458252 0.12480330467224121
0.21800056099891663 0.27498817443847656 0.12552346289157867
0.22730414569377899 0.27488934993743896 0.12477067112922668
0.23893101513385773 0.2733214795589447 0.12278647720813751
0.25234872102737427 0.27233618497848511 0.11960732191801071
0.2680174708366394 0.27288329601287842 0.11624155193567276
0.28800979256629944 0.27489069104194641 0.11363654583692551
0.31244808435440063 0.27759945392608643 0.11163325607776642
0.33820188045501709 0.28296110033988953 0.10954324156045914
0.36570060253143311 0.28387662768363953 0.1071900799870491
0.39270493388175964 0.28226378560066223 0.10380879789590836
0.42340999841690063 0.28592959046363831 0.10170003026723862
0.45914798974990845 0.2931978702545166 0.10489568114280701
0.49267041683197021 0.29763311147689819 0.11052006483078003
0.52598339319229126 0.30131933093070984 0.1161208301782608
0.56130826473236084 0.3033406138420105 0.12222339957952499
0.59542745351791382 0.30635353922843933 0.12825673818588257
0.62605077028274536 0.31271585822105408 0.13383916020393372
0.65591281652450562 0.31938639283180237 0.1399950236082077
0.680625319480896 0.32312005758285522 0.14802725613117218
0.70409536361694336 0.32564261555671692 0.15627589821815491
0.72824937105178833 0.32761663198471069 0.16565340757369995
0.75050437450408936 0.32973694801330566 0.17443884909152985
0.7707216739654541 0.33282530307769775 0.18014375865459442
0.78804326057434082 0.33610859513282776 0.18245267868041992
0.80142706632614136 0.33841362595558167 0.18177108466625214
0.81313866376876831 0.3398878276348114 0.1789424866437912
0.82511734962463379 0.34089463949203491 0.17499642074108124
0.83826321363449097 0.34161397814750671 0.17037862539291382
0.17975550889968872 0.29731577634811401 0.12318983674049377
0.19284930825233459 0.29511481523513794 0.12636971473693848
0.20452122390270233 0.29367780685424805 0.12897437810897827
0.21497064828872681 0.29287463426589966 0.13082234561443329
0.22470353543758392 0.29243052005767822 0.13166113197803497
0.23441742360591888 0.29203084111213684 0.13180920481681824
0.24564550817012787 0.29197031259536743 0.13080896437168121
0.26068487763404846 0.29163160920143127 0.12858615815639496
0.2780592143535614 0.2929016649723053 0.12637676298618317
0.30047926306724548 0.29640534520149231 0.12356072664260864
