Color Look-Up Tables/VintageStyle.cube
# Created by: Diego Duarte (opendesktop.org/u/diegoduarte/ | github.com/odiegoduarte/kdenlive)
TITLE "VintageStyle"
# LUT size
LUT_3D_SIZE 5
# Data domain
# LUT data points
DOMAIN_MIN 0.000000 0.000000 0.000000
DOMAIN_MAX 0.903226 0.903226 0.903226
0.06019732728600502 0.04773881658911705 0.039246074855327606
0.18085679411888123 0.055900309234857559 0.043128140270709991
0.38208889961242676 0.075664825737476349 0.065658308565616608
0.64194625616073608 0.118244968354702 0.11720684170722961
0.78664696216583252 0.14997480809688568 0.1139848530292511
0.14479662477970123 0.17768561840057373 0.092263936996459961
0.21541360020637512 0.18583343923091888 0.079801298677921295
0.40189984440803528 0.19581295549869537 0.092741549015045166
0.66111993789672852 0.221049964427948 0.12626215815544128
0.79177629947662354 0.24450278282165527 0.154383584856987
0.18640586733818054 0.33722364902496338 0.13344971835613251
0.27840834856033325 0.33198177814483643 0.14251680672168732
0.45844003558158875 0.34969443082809448 0.13053795695304871
0.67003989219665527 0.3908974826335907 0.14935280382633209
0.80320030450820923 0.4138568639755249 0.19249236583709717
0.19314779341220856 0.48309779167175293 0.15338186919689178
0.31608223915100098 0.47613909840583801 0.16314366459846497
0.5076148509979248 0.49097824096679688 0.16161207854747772
0.68672323226928711 0.52339696884155273 0.17230360209941864
0.82990753650665283 0.58108681440353394 0.22027379274368286
0.16951838135719299 0.65873390436172485 0.14389656484127045
0.31906601786613464 0.64958393573760986 0.15656460821628571
0.51105940341949463 0.63913142681121826 0.14906631410121918
0.69229543209075928 0.6571689248085022 0.16026812791824341
0.85980778932571411 0.7240452766418457 0.22928926348686218
0.12790833413600922 0.12699337303638458 0.19428189098834991
0.22326032817363739 0.14886043965816498 0.20808863639831543
0.41981452703475952 0.1589943915605545 0.20924422144889832
0.63653314113616943 0.17232303321361542 0.22708585858345032
0.77061939239501953 0.18377792835235596 0.23400931060314178
0.15696421265602112 0.20839853584766388 0.2191324383020401
0.22386302053928375 0.21064718067646027 0.21923339366912842
0.41355788707733154 0.22589300572872162 0.22528538107872009
0.67262691259384155 0.24525922536849976 0.24753560125827789
0.79946088790893555 0.28911423683166504 0.25362256169319153
0.20085662603378296 0.36028087139129639 0.24553301930427551
0.28359928727149963 0.36437025666236877 0.24390047788619995
0.45519998669624329 0.39125421643257141 0.22145293653011322
0.69868671894073486 0.4161001443862915 0.23965783417224884
0.8679661750793457 0.44853055477142334 0.32866623997688293
0.21085162460803986 0.51471054553985596 0.28958526253700256
0.32083877921104431 0.50085341930389404 0.30650284886360168
0.51123440265655518 0.5029599666595459 0.27610751986503601
0.72100996971130371 0.54114019870758057 0.27760466933250427
0.86229616403579712 0.60265076160430908 0.35746839642524719
0.1910344660282135 0.66634517908096313 0.30020669102668762
0.32076752185821533 0.64525258541107178 0.30879941582679749
0.51170653104782104 0.63837414979934692 0.28979513049125671
0.71580290794372559 0.65498578548431396 0.29909023642539978
0.87586915493011475 0.72069263458251953 0.37987294793128967
0.15802954137325287 0.17342939972877502 0.34256860613822937
0.26093417406082153 0.20266444981098175 0.35648253560066223
0.44443392753601074 0.22400639951229095 0.37685641646385193
0.64710676670074463 0.23088535666465759 0.37580621242523193
0.77933305501937866 0.23308813571929932 0.38602370023727417
0.18443557620048523 0.26784414052963257 0.34715726971626282
0.25985714793205261 0.29173141717910767 0.35775819420814514
0.4436022937297821 0.33212071657180786 0.39494055509567261
0.66947644948959351 0.34494480490684509 0.39179971814155579
0.80292725563049316 0.36426562070846558 0.40044832229614258
0.22535093128681183 0.416465163230896 0.40402007102966309
0.30126112699508667 0.44171157479286194 0.39671418070793152
0.45803505182266235 0.44807234406471252 0.4492972195148468
0.70946061611175537 0.47893655300140381 0.46237495541572571
0.89316350221633911 0.5262606143951416 0.46945008635520935
0.23356685042381287 0.55869215726852417 0.43117386102676392
0.33625704050064087 0.54808211326599121 0.43989524245262146
0.49195656180381775 0.57283902168273926 0.47332462668418884
0.74345362186431885 0.62674534320831299 0.48427757620811462
0.93617236614227295 0.68793362379074097 0.52158373594284058
0.20458118617534637 0.68531572818756104 0.43879479169845581
0.32996430993080139 0.65879583358764648 0.44369944930076599
0.50406378507614136 0.67240399122238159 0.46921634674072266
0.73598617315292358 0.70822292566299438 0.49511021375656128
0.92514842748641968 0.76475393772125244 0.54282206296920776
0.15692409873008728 0.17508812248706818 0.48824939131736755
0.28385582566261292 0.20832523703575134 0.49830198287963867
0.4649631679058075 0.25462672114372253 0.54186558723449707
0.64461982250213623 0.24751274287700653 0.54170495271682739
0.79976630210876465 0.24836066365242004 0.5505402684211731
0.18874019384384155 0.29780417680740356 0.48212936520576477
0.30123543739318848 0.32752904295921326 0.48888644576072693
0.47211042046546936 0.38849514722824097 0.53930670022964478
0.64150726795196533 0.38971740007400513 0.53631329536437988
0.81350666284561157 0.41066142916679382 0.5508277416229248
0.23625761270523071 0.45687729120254517 0.53526180982589722
0.36041548848152161 0.47041100263595581 0.53124970197677612
0.4980749785900116 0.51212447881698608 0.57791662216186523
0.67914146184921265 0.55302536487579346 0.59473806619644165
0.86790871620178223 0.583382248878479 0.59889459609985352
0.24543312191963196 0.58913254737854004 0.56108772754669189
0.37530580163002014 0.58103352785110474 0.55004358291625977
0.53929245471954346 0.61148089170455933 0.6017991304397583
0.76070380210876465 0.69971662759780884 0.66976839303970337
0.93329232931137085 0.75708705186843872 0.71375399827957153
0.22156806290149689 0.7133604884147644 0.57918894290924072
0.36829113960266113 0.69434219598770142 0.57743501663208008
0.55350762605667114 0.71577304601669312 0.61031019687652588
0.77252703905105591 0.77445226907730103 0.67693328857421875
0.95459890365600586 0.86273419857025146 0.76488178968429565
0.13931769132614136 0.15598346292972565 0.65590929985046387
0.29028958082199097 0.18692874908447266 0.66825276613235474
0.47257998585700989 0.23434250056743622 0.70519506931304932
0.64063364267349243 0.23134398460388184 0.70711630582809448
0.81697481870651245 0.22974953055381775 0.71712410449981689
0.16787819564342499 0.2999957799911499 0.6517530083656311
0.31389898061752319 0.33044078946113586 0.65306854248046875
0.48254191875457764 0.38499706983566284 0.68485087156295776
0.64109927415847778 0.39199763536453247 0.68632000684738159
0.82004696130752563 0.40711039304733276 0.7000696063041687
0.21726201474666595 0.46541666984558105 0.69165343046188354
0.35963669419288635 0.47396129369735718 0.67010962963104248
0.51121628284454346 0.51193022727966309 0.67679768800735474
0.67892915010452271 0.54896581172943115 0.69492059946060181
0.85341542959213257 0.58935332298278809 0.71604788303375244
0.22766007483005524 0.60670852661132812 0.70586949586868286
0.38055193424224854 0.60483121871948242 0.68955755233764648
0.55347996950149536 0.6278730034828186 0.6985316276550293
0.75241553783416748 0.70218813419342041 0.73899990320205688
0.90749502182006836 0.77352440357208252 0.79140061140060425
0.21340438723564148 0.74496549367904663 0.73037415742874146
0.37315034866333008 0.73100572824478149 0.71516823768615723
0.57902991771697998 0.76140952110290527 0.74057728052139282
0.78889429569244385 0.82136040925979614 0.79564738273620605
0.95668071508407593 0.92539596557617188 0.89081186056137085
